!!!COM: Scriabin, Alexander
!!!OTL: Sonata No. 10
!!!OPS: 70
!!!ODT: 1913
!!!AGN: Sonata
**kern	**kern	**kern
*staff3	*staff2	*staff1
*clefF4	*clefF4	*clefG2
*k[]	*k[]	*k[]
*M9/16	*M9/16	*M9/16
=1	=1	=1
4.r	[4.g-X	8r
.	.	16dd
.	.	[4.b-X
8.r	8.g-]	.
=2	=2	=2
4.r	[4.e-X	8b-L]
.	.	16b--Jk
.	.	4.g-X
8.r	8.e-_	.
=3	=3	=3
*	*	*^
4.r	4.e-_	8.raa	16b-XLL
.	.	.	16cc
.	.	.	16b--JJ
.	.	8raa	[4.a-X
.	.	16ccc	.
8.r	8.e-_	[8cc [8ff#X [8ddd	.
.	.	16raa	.
=4	=4	=4	=4
4.r	4.e-_	16%9ryy	4.a-_
8.r	8.e-]	.	8.a-]
=5	=5	=5	=5
4.r	[4.GGG-X [4.GG-X	8raa	[4.B-X
.	.	16dd	.
.	.	[4.b-X	.
8.r	8.GGG-] 8.GG-]	.	8.B-]
=6	=6	=6	=6
16%9r	[4.EEE-X [4.EE-X	8b-L]	[4.c-X
.	.	16b--Jk	.
.	.	4.g-X	.
.	8.EEE-] 8.EE-]	.	8.c-]
=7	=7	=7	=7
*	*clefG2	*	*
*	*^	*	*
[4.EEE-X [4.EE-X	16b-XLL	[4.cn	8.raa	4.rc
.	16cc	.	.	.
.	16b--JJ	.	.	.
.	[4.a-X	.	8raa	.
.	.	.	16cccc	.
8.EEE-_ 8.EE-_	.	8.c_	8ccc 8fff#X 8dddd	16.rc
.	.	.	.	32aa-X
.	.	.	16raa	16bb-X
=8	=8	=8	=8	=8
*^	*	*	*	*
4.EEE-_ 4.EE-_	4.rEE	4.a-_	4.c_	4.raa	[4.ee-X
16EEE-] 16EE-]	16rEE	8.a-]	8.c]	8.raa	8.ee-]
8AA-X	16AA-LL	.	.	.	.
.	16EE-XJJ	.	.	.	.
*v	*v	*	*	*	*
*	*v	*v	*	*
*	*clefF4	*	*
*	*	*v	*v
=9||	=9||	=9||
*M3/8	*M3/8	*M3/8
*	*^	*^
*	*	*^	*	*
4.r	4G	24rEE	24r	16e-XLL	4.c
.	.	[12AA-X	24AA-\LL	.	.
.	.	.	.	16enJJ	.
.	.	.	[24EE-X\JJ	.	.
.	.	8AA-]	8EE-\]	8.f	.
.	8G-X	24rEE	24r	.	.
.	.	12AA-	24AA-\LL	.	.
.	.	.	.	[16e	.
.	.	.	24EE-\JJ	.	.
=10	=10	=10	=10	=10	=10
4.r	4F	24rEE	24r	16eLL]	4.c
.	.	[12AA-X	24AA-\LL	.	.
.	.	.	.	16fJJ	.
.	.	.	[24EE-X\JJ	.	.
.	.	8AA-]	8EE-\]	8.g-X	.
.	8F-X	24rEE	24r	.	.
.	.	12AA-	24AA-\LL	.	.
.	.	.	.	16fn	.
.	.	.	24EE-\JJ	.	.
*	*v	*v	*v	*	*
*	*	*v	*v
*	*clefG2	*
=11	=11	=11
*^	*	*
[8qE-X/	[8qEE-X\ [8qAA-X	.	.
*v	*v	*	*
*^	*^	*^
*	*	*	*	*	*^
4.E-_	4.EE-_ 4.AA-_	16fLL	8c	24bb-XLL	8cc	8r
.	.	.	.	24ccc	.	.
.	.	16g-X	.	.	.	.
.	.	.	.	24bb--JJ	.	.
.	.	16gn	[4c	[4aa-X	16rc	8r
.	.	16g-X	.	.	32ff-XLLL	.
.	.	.	.	.	32ccJJJ	.
.	.	16gn	.	.	16rc	16r
.	.	16g-XJJ	.	.	32ff-LLL	[16ff-/
.	.	.	.	.	[32ccJJJ	.
=12	=12	=12	=12	=12	=12	=12
4.E-]	4.EE-] 4.AA-]	16gnLL	4c]	4.aa-]	4.cc]	4.ff-\]
.	.	16g-X	.	.	.	.
.	.	16f	.	.	.	.
.	.	16f-X	.	.	.	.
.	.	16c	8rc	.	.	.
.	.	16A-XJJ	.	.	.	.
*v	*v	*	*	*	*	*
*	*	*	*v	*v	*
*	*	*	*v	*v
*	*clefF4	*	*
=13	=13	=13	=13
*	*	*^	*
4.r	4G-	24rEE	24r	16B--LL
.	.	[12AA-X	24AA-\LL	.
.	.	.	.	16B-XJJ
.	.	.	[24EE-X\JJ	.
.	.	8AA-]	8EE-\]	8.c-X
.	8Fn	24rEE	24r	.
.	.	12AA-	24AA-\LL	.
.	.	.	.	[16B-
.	.	.	24EE-\JJ	.
=14	=14	=14	=14	=14
4.r	4F-X	24rEE	24r	16B-LL]
.	.	[12AA-X	24AA-\LL	.
.	.	.	.	16BnJJ
.	.	.	[24EE-X\JJ	.
.	.	8AA-]	8EE-\]	8.c
.	8E-X	24rEE	24r	.
.	.	12AA-	24AA-\LL	.
.	.	.	.	16B
.	.	.	24EE-\JJ	.
*	*v	*v	*v	*
*	*clefG2	*
=15	=15	=15
*^	*	*
.	[8qEE-X\ [8qAA-X	.	.
*v	*v	*	*
*^	*^	*^
*	*	*	*	*	*^
8G-X	4.EE-_ 4.AA-_	16BLL	8G-X	24ff-XLL	8g-X	8r
.	.	.	.	24gg-X	.	.
.	.	16c	.	.	.	.
.	.	.	.	24ee-XJJ	.	.
8rc	.	16d-X	[4G-	[4ddn	16rc	8r
.	.	16c	.	.	32b-XLLL	.
.	.	.	.	.	32g-JJJ	.
8rc	.	16d-	.	.	16rc	16r
.	.	16cJJ	.	.	32b-LLL	[16b-/
.	.	.	.	.	[32g-JJJ	.
=16	=16	=16	=16	=16	=16	=16
4.rc	4.EE-] 4.AA-]	16d-XLL	4G-]	4.dd]	4.g-]	4.b-\]
.	.	16cJJ	.	.	.	.
.	.	16c-XLL	.	.	.	.
.	.	16B-X	.	.	.	.
.	.	16G-X	8rc	.	.	.
.	.	16DnJJ	.	.	.	.
*v	*v	*	*	*	*	*
*	*clefF4	*	*	*	*
=17	=17	=17	=17	=17	=17
4.r	16FLL	[4.EE-X [4.AA-X	24b-XLL	8cn	8r
.	.	.	24cc	.	.
.	16G-X	.	.	.	.
.	.	.	24b--JJ	.	.
.	16Gn	.	[4a-X	16rc	8r
.	16G-X	.	.	32f-XLLL	.
.	.	.	.	32cJJJ	.
.	16Gn	.	.	16rc	16r
.	16G-XJJ	.	.	32f-LLL	[16f-/
.	.	.	.	[32cJJJ	.
=18	=18	=18	=18	=18	=18
4.r	40%3GnL	4.EE-] 4.AA-]	4.a-]	4.c]	4.f-/]
.	40%3G-X	.	.	.	.
.	40%3F	.	.	.	.
.	40%3F-X	.	.	.	.
.	40%3CJ	.	.	.	.
=19	=19	=19	=19	=19	=19
4.r	16FnLL	[4.EE-X [4.AA-X	24b-XLL	8c	8r
.	.	.	24cc	.	.
.	16G-X	.	.	.	.
.	.	.	24b--JJ	.	.
.	16Gn	.	[4a-X	16rc	8r
.	16G-X	.	.	32f-XLLL	.
.	.	.	.	32cJJJ	.
.	16Gn	.	.	16rc	16r
.	16G-XJJ	.	.	32f-LLL	[16f-/
.	.	.	.	[32cJJJ	.
=20	=20	=20	=20	=20	=20
4.r	32%3GnL	4.EE-] 4.AA-]	4.a-]	4.c]	4.f-/]
.	32%3G-X	.	.	.	.
.	32%3F	.	.	.	.
.	32%3EnJ	.	.	.	.
*	*v	*v	*	*	*
*	*	*v	*v	*v
=21	=21	=21
*M3/4	*M3/4	*M6/8
*	*^	*^
2.r	4F	[2.EE- [2.AA-	8a-L	2.c
.	.	.	8b-	.
.	4F-	.	8gnJ	.
.	.	.	[4.g-	.
.	4E-	.	.	.
=22	=22	=22	=22	=22
2.r	4D	2.EE-] 2.AA-]	4.g-]	2.c-X
.	4E-X	.	.	.
.	.	.	4.gn	.
.	4En	.	.	.
=23	=23	=23	=23	=23
2.r	4F	[2.EE- [2.AA-	8a-L	2.cn
.	.	.	8b-	.
.	4F-	.	8gJ	.
.	.	.	[4.g-	.
.	4E-	.	.	.
=24	=24	=24	=24	=24
2.r	4D	2.EE-] 2.AA-]	4.g-]	2.c-X
.	4E-X	.	.	.
.	.	.	4.gn	.
.	4En	.	.	.
=25	=25	=25	=25	=25
*M2/4	*M2/4	*M2/4	*M2/4	*M2/4
2r	4F	[2EE- [2AA-	12a-L	2cn
.	.	.	12b-	.
.	.	.	12gJ	.
.	4F-	.	4g-	.
=26	=26	=26	=26	=26
2r	4E-X	2EE-] 2AA-]	12fnL	2c-
.	.	.	12gn	.
.	.	.	12f-J	.
.	4F-X	.	[4e-	.
=27	=27	=27	=27	=27
2r	[2Fn	[2EE- [2AA-	12e-L]	[2c-
.	.	.	12fn	.
.	.	.	12dJ	.
.	.	.	[4d-	.
=28	=28	=28	=28	=28
2r	2F]	2EE-] 2AA-]	2d-]	2c-]
*	*v	*v	*	*
*	*	*v	*v
=29||	=29||	=29||
*M9/16	*M9/16	*M9/16
[4.g-X	4.r	8r
.	.	16ddn
.	.	[4.b-X
8.g-]	8.r	.
=30	=30	=30
[4.e-X	4.r	8b-L]
.	.	16b--Jk
.	.	4.g-X
8.e-_	8.r	.
*	*clefG2	*
=31	=31	=31
*	*	*^
4.e-_X	16b-XLL	8.raa	4.rc
.	16cc	.	.
.	16b--JJ	.	.
.	[4.a-X	8raa	.
.	.	16cccc	.
8.e-_	.	8ccc 8fff#X 8dddd	16.rc
.	.	.	32aa-X
.	.	16raa	16bb-X
=32	=32	=32	=32
*	*	*v	*v
4.e-]	4.a-]	4.ee-
16.r	16r	8.r
.	32a-LLL	.
16.e-	32cc	.
.	32dd	.
.	32ggJJJ	.
*	*clefF4	*
=33	=33	=33
*	*	*tremolo
4.r	8.A-	32gg-LLL
.	.	32ggn
.	.	32gg-
.	.	32ggn
.	.	32gg-
.	.	32ggn
.	8.r	32gg-
.	.	32ggn
.	.	32gg-
.	.	32ggn
.	.	32gg-
.	.	32ggnJJJ
8.r	8.r	32gg-LLL
.	.	32ggn
.	.	32gg-
.	.	32ggn
.	.	32gg-
.	.	32ggnJJJ
=34	=34	=34
4.r	8.r	32gg-LLL
.	.	32ggn
.	.	32gg-
.	.	32ggn
.	.	32gg-
.	.	32ggn
.	8.r	32gg-
.	.	32ggn
.	.	32gg-
.	.	32ggn
.	.	32gg-
.	.	32ggnJJJ
*	*	*Xtremolo
8.r	16.r	16r
.	.	32A-LLL
.	16.E-	32c
.	.	32d
.	.	32gJJJ
=35	=35	=35
*	*	*tremolo
4.r	8.AA-	32g-LLL
.	.	32gn
.	.	32g-
.	.	32gn
.	.	32g-
.	.	32gn
.	8.r	32g-
.	.	32gn
.	.	32g-
.	.	32gn
.	.	32g-
.	.	32gnJJJ
8.r	8.r	32g-LLL
.	.	32gn
.	.	32g-
.	.	32gn
.	.	32g-
.	.	32gnJJJ
=36	=36	=36
4.r	8.r	32g-LLL
.	.	32gn
.	.	32g-
.	.	32gn
.	.	32g-
.	.	32gn
.	8.r	32g-
.	.	32gn
.	.	32g-
.	.	32gn
.	.	32g-
.	.	32gnJJJ
*	*	*Xtremolo
8.r	8.r	8.r
=37	=37	=37
*	*^	*
4.r	8.r	8.r	8r
.	.	.	32anLLL
.	.	.	32ccJJJ
.	.	[8qCC\ [8qFF [8qC	.
.	4.An 4.c 4.e 4.g	4.CC] 4.FF] 4.C]	[8.ee
8.r	.	.	8ee]
.	.	.	32aLLL
.	.	.	32ccJJJ
=38	=38	=38	=38
4.r	4.A 4.c 4.e 4.g	4.rEE	[8.ee
.	.	.	8ee]
.	.	.	32aLLL
.	.	.	32ccJJJ
8.r	8.A 8.c 8.e 8.g	8.rEE	8.ee
=39||	=39||	=39||	=39||
*	*v	*v	*
*	*	*^
4.r	8.r	8eeL	16rc
.	.	.	16aLL
.	.	[16ee-XJk	16fJJ
.	16.ALL	8ee-L]	16rc
.	.	.	16aLL
.	16.C	.	.
.	.	16eenJk	16fJJ
8.r	16.FF	16ee-XLL	16rc
.	.	16dd	16aLL
.	16.CCJJ	.	.
.	.	16dd-XJJ	16fJJ
=40	=40	=40	=40
4.r	16.AAA-XLL	4.cc	16rc
.	.	.	16a-XLL
.	16.DD-X	.	.
.	.	.	16f-XJJ
.	16.AA-X	.	16rc
.	.	.	16a-LL
.	16.D-XJJ	.	.
.	.	.	16f-JJ
8.r	16.A-X	8.cc-X	8.rc
.	16.r	.	.
=41	=41	=41	=41
4.r	8.r	8eeL	16rc
.	.	.	16anLL
.	.	[16ee-XJk	16fnJJ
.	16.AnLL	8ee-L]	16rc
.	.	.	16aLL
.	16.C	.	.
.	.	16eenJk	16fJJ
8.r	16.FF	16ee-XLL	16rc
.	.	16dd	16aLL
.	16.CCJJ	.	.
.	.	16dd-XJJ	16fJJ
=42	=42	=42	=42
4.r	16.AAA-XLL	[8.cc	16rc
.	.	.	16a-XLL
.	16.DD-X	.	.
.	.	.	16f-XJJ
.	16.AA-X	8ccL]	16rc
.	.	.	16a-LL
.	16.D-XJJ	.	.
.	.	16cc-J	16f-JJ
8.r	16.A-X	8.a-	8.rc
.	16.r	.	.
=43	=43	=43	=43
4.r	8.r	8ccnL	16rc
.	.	.	16fnLL
.	.	[16cc-Jk	16d-JJ
.	16.FLL	8cc-L]	16rc
.	.	.	16fLL
.	16.AA-	.	.
.	.	16ccJk	16d-JJ
8.r	16.DD-	16cc-XLL	16rc
.	.	16b-	16fLL
.	16.AAA-JJ	.	.
.	.	16b--XJJ	16d-JJ
=44	=44	=44	=44
4.r	16.EEELL	8g#L	16rc
.	.	.	16eLL
.	16.AAAn	.	.
.	.	[16gJk	16cnJJ
.	16.EE	8gL]	16rc
.	.	.	16eLL
.	16.AAnJJ	.	.
.	.	16g#Jk	16cJJ
8.r	16.E	16gXLL	8.rc
.	.	16f#	.
.	16.r	.	.
.	.	16fXJJ	.
=45	=45	=45	=45
4.r	16.CLL	[8.e	16rc
.	.	.	16cLL
.	16.FF	.	.
.	.	.	16A-JJ
.	16.CC	8eL]	16rc
.	.	.	16cLL
.	16.FFFJJ	.	.
.	.	16e-Jk	16A-JJ
8.r	8.r	[8.c	8.r
=46	=46	=46	=46
4.r	16.AAA-LL	8.c_	16rc
.	.	.	16A-LL
.	16.DD-	.	.
.	.	.	16F-JJ
.	16.AA-	8cL]	16rc
.	.	.	16A-LL
.	16.D-JJ	.	.
.	.	16c-Jk	16F-JJ
8.r	8.r	[8.en	8.r
=47	=47	=47	=47
4.r	16.CnLL	8.e_	16rc
.	.	.	16cnLL
.	16.FFn	.	.
.	.	.	16A-JJ
.	16.CC	8eL]	16rc
.	.	.	16cLL
.	16.FFFJJ	.	.
.	.	16e-Jk	16A-JJ
8.r	8.r	[8.c	8.r
=48	=48	=48	=48
4.r	16.AAA-LL	8.c_	16rc
.	.	.	16A-LL
.	16.DD-	.	.
.	.	.	16F-JJ
.	16.AA-	8cL]	16rc
.	.	.	16A-LL
.	16.D-JJ	.	.
.	.	16c-Jk	16F-JJ
8.r	8.r	8.f-	8.r
=49	=49	=49	=49
4.r	16.AAA-LL	[8.cn	16rc
.	.	.	16A-LL
.	16.DD-	.	.
.	.	.	16F-JJ
.	16.AA-	8cL]	16rc
.	.	.	16A-LL
.	16.D-JJ	.	.
.	.	16c-Jk	16F-JJ
8.r	[8.A-	[8.f-	8.r
=50	=50	=50	=50
*	*	*v	*v
4.r	8.A-L]	8f-L]
.	.	16e-XJk
.	8.cn	8a-XL
.	.	16a--Jk
8.r	8.f-XJ	8ccnL
.	.	16cc-XJk
*	*	*^
=51	=51	=51	=51
4.r	8.r	8eenL	16rc
.	.	.	16anLL
.	.	[16ee-XJk	16fnJJ
.	16.AnLL	8ee-L]	16rc
.	.	.	16aLL
.	16.C	.	.
.	.	16eenJk	16fJJ
8.r	16.FF	16ee-XLL	16rc
.	.	16dd	16aLL
.	16.CCJJ	.	.
.	.	16dd-XJJ	16fJJ
=52	=52	=52	=52
4.r	16.AAA-XLL	4.cc	16rc
.	.	.	16a-XLL
.	16.DD-X	.	.
.	.	.	16f-XJJ
.	16.AA-X	.	16rc
.	.	.	16a-LL
.	16.D-XJJ	.	.
.	.	.	16f-JJ
8.r	8.A-X	8.cc-X	8.rc
=53	=53	=53	=53
*	*	*v	*v
4.r	8.r	8r
.	.	32g#XLLL
.	.	32bJJJ
.	8.BBBL	4.dd#X
8.r	8.EEJ	.
=54	=54	=54
*	*	*^
4.r	8.BBL	8r	4.r
.	.	32g#XLLL	.
.	.	32bJJJ	.
.	8.G#J	4.dd#X	.
8.r	8.r	.	16f#LL
.	.	.	16g#
.	.	.	16fnJJ
=55	=55	=55	=55
4.r	8.r	8dd#L	16rc
.	.	.	16g#LL
.	.	[16ddnXJk	16eJJ
.	16.G#LL	8ddL]	16rc
.	.	.	16g#LL
.	16.BB	.	.
.	.	16dd#Jk	16eJJ
8.r	16.EE	16ddnXLL	16rc
.	.	16cc#	16g#LL
.	16.BBBJJ	.	.
.	.	16ccnXJJ	16eJJ
=56	=56	=56	=56
4.r	16.GGGnLL	4.b	16rc
.	.	.	16gnXLL
.	16.CC	.	.
.	.	.	16e-XJJ
.	16.GG	.	16rc
.	.	.	16gLL
.	16.CJJ	.	.
.	.	.	16e-JJ
8.r	8.G	8.b-	8.rc
=57	=57	=57	=57
*	*	*v	*v
4.r	8.r	8r
.	.	32gLLL
.	.	32b-JJJ
.	8.BBB-L	4.ddX
8.r	8.EE-J	.
=58	=58	=58
*	*^	*
4.r	8.BB-L	4.r	8r
.	.	.	32gLLL
.	.	.	32b-JJJ
.	8.GJ	.	4.ddX
8.r	8.r	[8.f	.
=59||	=59||	=59||	=59||
*M3/8	*M3/8	*M3/8	*M3/8
4.r	24fLL]	8BBB-X 8EE-X 8BB-X 8G	8r
.	24g	.	.
.	24f-XJJ	.	.
.	.	.	16qqg/LL
.	.	.	16qqb-X/JJ
.	[4e-X	8rEE	4dd
.	.	8rEE	.
=60	=60	=60	=60
4.r	8e-]	4rEE	24dd-XLL
.	.	.	24ee-X
.	.	.	24ccJJ
.	16qqG/LL	.	.
.	16qqB-X/JJ	.	.
.	4dn	.	[4bn
.	.	8rEE	.
=61	=61	=61	=61
*	*	*	*^
4.r	8c#X	8AAA 8EEn 8En	8raa	24bLL]
.	.	.	.	24cc#X
.	.	.	.	24b-XJJ
.	.	.	16qqcc#/LL	.
.	.	.	16qqee/JJ	.
.	8rc	8rEE	4gg#X	4a
.	8rc	8rEE	.	.
=62	=62	=62	=62	=62
4.r	4.r	4.r	24ggnLL	8rc
.	.	.	24aa	.
.	.	.	24ff#XJJ	.
.	.	.	.	16qqc#X\LL
.	.	.	.	16qqe\JJ
.	.	.	[4ffn	4g#X
=63	=63	=63	=63	=63
4.r	8rc	8BBB-X 8EE-X 8E-X	24ffLL]	4.gn
.	.	.	24gg	.
.	.	.	24ff-XJJ	.
.	16qqG/LL	.	.	.
.	16qqB-X/JJ	.	.	.
.	4d	8rEE	[4ee-X	.
.	.	8rEE	.	.
=64	=64	=64	=64	=64
*	*	*	*v	*v
4.r	24d-XLL	4.rEE	8ee-]
.	24e-X	.	.
.	24cJJ	.	.
.	.	.	16qqg/LL
.	.	.	16qqb-X/JJ
.	[4Bn	.	4dd
=65	=65	=65	=65
*	*	*	*^
4.r	24BLL]	8AAA 8EEn 8En	8cc#X	8rc
.	24c#X	.	.	.
.	24B-XJJ	.	.	.
.	.	.	16qqc#X/LL	.
.	.	.	16qqe/JJ	[8qc#\
.	4A	4r	4g#X	4c#]
*	*v	*v	*	*
=66	=66	=66	=66
4.r	8BBB-XL	24gnLL	4.d-X
.	.	24a	.
.	.	24g-XJJ	.
.	8EE-X	4f	.
.	8E-XJ	.	.
=67	=67	=67	=67
4.r	8EnL	8raa	8rc
.	.	16qqc#X/LL	.
.	.	16qqe/JJ	[8qc#\
.	8EEn	4g#X	4c#]
.	8AAAJ	.	.
=68	=68	=68	=68
4.r	8BBB-XL	24gnLL	4.d-X
.	.	24a	.
.	.	24g-XJJ	.
.	8EE-X	4f	.
.	8E-XJ	.	.
*	*	*v	*v
=69	=69	=69
4.r	8EnL	8raa
.	.	16qqc#X/LL
.	.	16qqe/JJ
.	8EEn	4g#X
.	[8AAAJ	.
=70	=70	=70
4.r	8AAAL]	8r
.	.	16qqc#X/LL
.	.	16qqe/JJ
.	8EE	4g#X
.	8EJ	.
=71	=71	=71
4.r	4r	4r
.	.	16qqc#X/LL
.	.	16qqe/JJ
.	[8AA [8E	[8g#X
=72	=72	=72
4.r	8AA] 8E]	8g#]
.	.	16qqe#X/LL
.	.	16qqg#X/JJ
.	4GG#X 4E#X 4c#X	4b#X
=73||	=73||	=73||
*M3/4	*M3/4	*M3/4
*	*^	*
.	.	.	16qqa#X/LL
.	.	.	16qqdd/JJ
2.r	4GG#X 4En 4d	4rEE	4ff#X
.	12rc	4rEE	4.A#X
.	12f#XL	.	.
.	12dJ	.	.
.	6E	12EL	.
.	.	12GG#J	.
.	.	.	[8B
.	12E	12rEE	.
=74	=74	=74	=74
*	*	*	*^
2.r	4E	16rEE	4r	24BKL]
.	.	.	.	12c
.	.	16GGnLL	.	.
.	.	16E	.	24eL
.	.	.	.	24f#X
.	.	16cJJ	.	.
.	.	.	.	24bJJ
.	4rc	8f#	8r	4.b-X
.	.	.	16qqccLL	.
.	.	.	16qqeeJJ	.
*	*	*	*tremolo	*
.	.	8r	32ff#LLL	.
.	.	.	32gg 32aa	.
.	.	.	32ff#	.
.	.	.	32ggJJJ 32aa	.
.	4r	4r	32ff#LLL	.
.	.	.	32gg 32aa	.
.	.	.	32ff#	.
.	.	.	32gg 32aa	.
.	.	.	32ff#	8a
.	.	.	32gg 32aa	.
.	.	.	32ff#	.
.	.	.	32ggJJJ 32aa	.
*	*	*	*Xtremolo	*
=75	=75	=75	=75	=75
2.r	16r	4r	32ff#XLLL	4rc
.	.	.	32ggJJJ 32aa	.
.	16BB-XLL	.	16raa	.
.	16E-X	.	8raa	.
.	16B-XJJ	.	.	.
.	8g	4r	4raa	4cc
.	8r	.	.	.
.	8r	4r	16raa	4a
.	.	.	16gg	.
.	24.r	.	8ee-X 8aa	.
.	48e-XKLL	.	.	.
.	24fJJ	.	.	.
=76	=76	=76	=76	=76
.	[8qB-X/	.	.	.
2.r	4B-]	16B-LL	4e-X 4g 4dd-X	6a
.	.	16E-XJJ	.	.
.	.	8rEE	.	.
.	.	.	.	12b-X
.	.	.	16qqen/LL	.
.	.	.	16qqg/JJ	.
.	4C 4G	4rEE	4bn	4rc
.	.	.	16qqg#X/LL	.
.	.	.	16qqb/JJ	.
.	4BBn 4G#X 4en	4rEE	4dd#X	4rc
*	*	*	*v	*v
=77	=77	=77	=77
.	.	.	16qqcc#X/LL
.	.	.	16qqff/JJ
2.r	4BB 4Gn 4f	4rEE	4aaX
.	12rc	4rEE	4.c#X
.	12aL	.	.
.	12fJ	.	.
.	6G	12GL	.
.	.	12BBJ	.
.	.	.	[8d
.	12G	12rEE	.
=78	=78	=78	=78
*	*	*	*^
2.r	4G	16rEE	4r	24dKL]
.	.	.	.	12e-
.	.	16BB-LL	.	.
.	.	16G	.	24gL
.	.	.	.	24a
.	.	16e-JJ	.	.
.	.	.	.	24ddJJ
.	4rc	8a	8r	4.dd-X
.	.	.	16qqee-LL	.
.	.	.	16qqggJJ	.
*	*	*	*tremolo	*
.	.	8r	32aaLLL	.
.	.	.	32bb- 32ccc	.
.	.	.	32aa	.
.	.	.	32bb-JJJ 32ccc	.
.	4r	4r	32aaLLL	.
.	.	.	32bb- 32ccc	.
.	.	.	32aa	.
.	.	.	32bb- 32ccc	.
.	.	.	32aa	8cc
.	.	.	32bb- 32ccc	.
.	.	.	32aa	.
.	.	.	32bb-JJJ 32ccc	.
*	*	*	*Xtremolo	*
=79	=79	=79	=79	=79
2.r	16r	4r	32aaLLL	4rc
.	.	.	32bb-JJJ 32ccc	.
.	16BB-XLL	.	16raa	.
.	16E-X	.	8raa	.
.	16d-XJJ	.	.	.
.	8g	4r	4raa	4ee-
.	8r	.	.	.
.	8r	4r	16raa	4cc
.	.	.	16gg	.
.	24.r	.	8ee- 8aa	.
.	48gXKLL	.	.	.
.	24aJJ	.	.	.
*	*v	*v	*	*
=80	=80	=80	=80
2.r	4AA 4G 4c#	4eX 4g 4eenX	6a
.	.	.	12b-X
.	.	16qqe/LL	.
.	.	16qqg/JJ	.
.	4Cn 4G	4bn	4rc
.	.	16qqg#X/LL	.
.	.	16qqb/JJ	.
.	4BBn 4G#X 4e	4dd#X	4rc
*	*	*v	*v
=81	=81	=81
*	*^	*
.	.	.	16qqcc#X/LL
.	.	.	16qqff/JJ
2.r	4BB 4Gn 4f	4rEE	4aaX
.	12rc	4rEE	4.c#X
.	12aL	.	.
.	12fJ	.	.
.	6G	12GL	.
.	.	12BBJ	.
.	.	.	[8d
.	12G	12rEE	.
=82	=82	=82	=82
*	*	*	*^
2.r	4G	16rEE	4r	24dKL]
.	.	.	.	12e-
.	.	16BB-LL	.	.
.	.	16G	.	24gL
.	.	.	.	24a
.	.	16e-JJ	.	.
.	.	.	.	24ddJJ
.	4rc	8a	8r	[2dd-X
.	.	.	16qqee-LL	.
.	.	.	16qqggJJ	.
*	*	*	*tremolo	*
.	.	8r	32aaLLL	.
.	.	.	32bb- 32ccc	.
.	.	.	32aa	.
.	.	.	32bb-JJJ 32ccc	.
.	4r	4r	32aaLLL	.
.	.	.	32bb- 32ccc	.
.	.	.	32aa	.
.	.	.	32bb- 32ccc	.
.	.	.	32aa	.
.	.	.	32bb- 32ccc	.
.	.	.	32aa	.
.	.	.	32bb-JJJ 32ccc	.
*	*	*	*Xtremolo	*
*	*v	*v	*	*
=83	=83	=83	=83
*	*	*tremolo	*
2.r	2.r	32aaLLL	2dd-]
.	.	32bb- 32ccc	.
.	.	32aa	.
.	.	32bb- 32ccc	.
.	.	32aa	.
.	.	32bb- 32ccc	.
.	.	32aa	.
.	.	32bb-JJJ 32ccc	.
.	.	32aaLLL	.
.	.	32bb- 32ccc	.
.	.	32aa	.
.	.	32bb- 32ccc	.
.	.	32aa	.
.	.	32bb- 32ccc	.
.	.	32aa	.
.	.	32bb-JJJ 32ccc	.
.	.	32aa	4cc
.	.	32bb- 32ccc	.
.	.	32aa	.
.	.	32bb- 32ccc	.
.	.	32aa	.
.	.	32bb- 32ccc	.
.	.	32aa	.
.	.	32bb-JJJ 32ccc	.
*	*	*Xtremolo	*
=84||	=84||	=84||	=84||
*M3/8	*M3/8	*M3/8	*M3/8
4.r	4.BB-X 4.E-X	8raa	4.d-X 4.g
.	.	8ee-XL	.
.	.	8ccJ	.
=85	=85	=85	=85
4.r	4.GG 4.C 4.B-X	8eenL	8dn 8f#X
.	.	8ff#X	4e-X 4b-X
.	.	8ee-XJ	.
=86	=86	=86	=86
*	*	*	*^
4.r	4.EEn 4.AA 4.G 4.c#X	8ggL	8bn	4.d#X\
.	.	8ff#X	4b-X	.
.	.	8dd#XJ	.	.
=87	=87	=87	=87	=87
*	*	*	*v	*v
4.r	8EE 8AA 8G 8c#X	8ggL	8d#X 8bn
.	4GG 4Cn 4B-X	8ddn 8bb-X	4e
.	.	8dd-XJ 8gg	.
=88	=88	=88	=88
*	*	*v	*v
*	*^	*
4.r	8dnL	24GLL	24r
.	.	24AA	24bbnLL
.	.	24EEJJ	[24ffJJ
.	8c#X	8rEE	16ffLL]
.	.	.	[16eeJJ
.	8cnJ	8rEE	12eeL]
.	.	.	24dd#XJk
=89	=89	=89	=89
*	*	*	*^
4.r	4c	4.DD#X 4.AA 4.G	4.gg	8b 8dd#X
.	.	.	.	16qqd#X\LL
.	.	.	.	16qqg\JJ
.	.	.	.	4b
.	8c	.	.	.
=90	=90	=90	=90	=90
4.r	[4.c#X	24GLL	8raa	12rc
.	.	24AA	.	.
.	.	24EEJJ	.	24dd#X
.	.	8rEE	8ff#XL	[4b
.	.	8rEE	8dd#J	.
=91	=91	=91	=91	=91
*	*	*	*	*^
4.r	8c#]	8rEE	8ggL	12bL]	8d#X\
.	.	.	.	24b-XJk	.
.	4B-X	4GG 4Cn	8ddn 8bb-X	4g	4e\
.	.	.	8dd-XJ 8gg	.	.
=92	=92	=92	=92	=92	=92
*	*	*	*	*v	*v
*	*	*	*v	*v
4.r	8dnL	24GLL	24r
.	.	.	8qbn
.	.	24AA	24bbnLL
.	.	24EEJJ	[24ffJJ
.	8c#X	8rEE	16ffLL]
.	.	.	[16eeJJ
.	8cnJ	8rEE	12eeL]
.	.	.	24dd#XJk
=93	=93	=93	=93
*	*	*	*^
4.r	4c	4.DD#X 4.AA 4.G	4.gg	8b 8dd#X
.	.	.	.	16qqd#X\LL
.	.	.	.	16qqg\JJ
.	.	.	.	4b
.	8c	.	.	.
=94	=94	=94	=94	=94
4.r	8dnL	24GLL	8r	16r
.	.	24AA	.	.
.	.	.	.	[16b
.	.	24EEJJ	.	.
.	8c#X	8rEE	16ffLL	4b]
.	.	.	16eeJJ	.
.	8cnJ	8rEE	[8ee-X	.
=95	=95	=95	=95	=95
*	*	*^	*	*
4.r	8rc	16BLL	24B\LL	16ee-LL]	16rc
.	.	.	24C\	.	.
.	.	[16B-XJJ	.	16dd	[16dd
.	.	.	24GG\JJ	.	.
.	16eKL	4B-]	8r	16aa-X	4dd]
.	8e-X	.	.	16ggJJ	.
.	.	.	8r	[8gg-X	.
.	16dJk	.	.	.	.
=96	=96	=96	=96	=96	=96
4.r	8rc	16dLL	24d\LL	24gg-KL\]	24rc
.	.	.	24E-X\	[12ffJ	24fffLL/
.	.	[16d-XJJ	.	.	.
.	.	.	24BB-X\JJ	.	[24ccc-XJJ
.	8gL	4d-]	8r	4ff\]	16ccc-LL]/
.	.	.	.	.	[16bb-XJJ
.	8g-XJ	.	8r	.	12bb-LL/]
.	.	.	.	.	24aanJJk
*	*	*v	*v	*	*
=97	=97	=97	=97	=97
4.r	4g-X	4.AA 4.E-X 4.d-X	4.ddd-X	8ff 8aa
.	.	.	.	16qqa\LL
.	.	.	.	16qqdd-X\JJ
.	.	.	.	4ff
.	8g-	.	.	.
=98	=98	=98	=98	=98
4.r	[4.gn	24d-XLL	8raa	12rc
.	.	24E-X	.	.
.	.	24BB-XJJ	.	24aa
.	.	8rEE	8cccL	[4ff
.	.	8rEE	8aaJ	.
=99	=99	=99	=99	=99
*	*	*	*	*^
4.r	4g]	4.rEE	8ddd-XL	12ffL]	4.a\
.	.	.	.	24ff-XJk	.
.	.	.	8fff-X	4dd-X	.
.	8rc	.	8ddd-J	.	.
*	*	*	*	*v	*v
=100||	=100||	=100||	=100||	=100||
*M3/4	*M3/4	*M3/4	*M3/4	*M3/4
.	.	.	.	16qqcc#X/LL
.	.	.	.	16qqffn/JJ
2.r	4BB 4Gn 4f	4rEE	4fffn	4aaX
.	12rc	4rEE	4r	4.c#X
.	12aL	.	.	.
.	12fJ	.	.	.
.	6G	12GL	4r	.
.	.	12BBJ	.	.
.	.	.	.	[8d
.	12G	12rEE	.	.
=101	=101	=101	=101	=101
2.r	4G	16rEE	4r	24dKL]
.	.	.	.	12e-
.	.	16BB-LL	.	.
.	.	16G	.	24gL
.	.	.	.	24a
.	.	16e-JJ	.	.
.	.	.	.	24ddJJ
.	4rc	8a	8r	[2dd-X
.	.	.	16qqee-LL	.
.	.	.	16qqggJJ	.
*	*	*	*tremolo	*
.	.	8r	32aaLLL	.
.	.	.	32bb- 32ccc	.
.	.	.	32aa	.
.	.	.	32bb-JJJ 32ccc	.
.	4r	4r	32aaLLL	.
.	.	.	32bb- 32ccc	.
.	.	.	32aa	.
.	.	.	32bb- 32ccc	.
.	.	.	32aa	.
.	.	.	32bb- 32ccc	.
.	.	.	32aa	.
.	.	.	32bb-JJJ 32ccc	.
*	*	*	*Xtremolo	*
*	*v	*v	*	*
=102	=102	=102	=102
*	*	*tremolo	*
2.r	2.r	32aaLLL	2dd-]
.	.	32bb- 32ccc	.
.	.	32aa	.
.	.	32bb- 32ccc	.
.	.	32aa	.
.	.	32bb- 32ccc	.
.	.	32aa	.
.	.	32bb-JJJ 32ccc	.
.	.	32aaLLL	.
.	.	32bb- 32ccc	.
.	.	32aa	.
.	.	32bb- 32ccc	.
.	.	32aa	.
.	.	32bb- 32ccc	.
.	.	32aa	.
.	.	32bb-JJJ 32ccc	.
.	.	32aa	4cc
.	.	32bb- 32ccc	.
.	.	32aa	.
.	.	32bb- 32ccc	.
.	.	32aa	.
.	.	32bb- 32ccc	.
.	.	32aa	.
.	.	32bb-JJJ 32ccc	.
*	*	*Xtremolo	*
=103||	=103||	=103||	=103||
*M3/8	*M3/8	*M3/8	*M3/8
4.r	4.BB-X 4.E-X	8raa	4.d-X 4.g
.	.	8ee-XL	.
.	.	8ccJ	.
=104	=104	=104	=104
4.r	4.GG 4.C 4.B-X	8eenL	8dn 8f#X
.	.	8ff#X	4e-X 4b-X
.	.	8ee-XJ	.
=105	=105	=105	=105
*	*	*	*^
4.r	4.EEn 4.AA 4.G 4.c#X	8ggL	8bn	4.d#X\
.	.	8ff#X	4b-X	.
.	.	8dd#XJ	.	.
=106	=106	=106	=106	=106
*	*	*	*v	*v
4.r	8EE 8AA 8G 8c#X	8ggL	8d#X 8bn
.	4GG 4Cn 4B-X	8ddn 8bb-X	4e
.	.	8dd-XJ 8gg	.
*	*	*v	*v
*	*^	*
=107	=107	=107	=107
4.r	8dnL	24GLL	24r
.	.	.	8qbn
.	.	24AA	24bbnLL
.	.	24EEJJ	[24ffJJ
.	8c#X	8rEE	16ffLL]
.	.	.	[16eeJJ
.	8cnJ	8rEE	12eeL]
.	.	.	24dd#XJk
*	*	*	*^
=108	=108	=108	=108	=108
4.r	4c	4.DD#X 4.AA 4.G	4.gg	8b 8dd#X
.	.	.	.	16qqd#X\LL
.	.	.	.	16qqg\JJ
.	.	.	.	4b
.	8c	.	.	.
=109	=109	=109	=109	=109
4.r	4.c#X	24GLL	12raa	8rc
.	.	24AA	.	.
.	.	24EEJJ	24ddd#X	.
.	.	8rEE	[4bb	8f#XL
.	.	8rEE	.	8d#XJ
=110	=110	=110	=110	=110
4.r	4.r	4.r	12bbL]	8gL
.	.	.	24bb-XJk	.
.	.	.	4gg	8b-X
.	.	.	.	8gJ
=111	=111	=111	=111	=111
4.r	8dnL	24GLL	24rc	[4.bn\
.	.	24AA	24bbnLL	.
.	.	24EEJJ	[24ffJJ	.
.	8c#X	8rEE	16ffLL]	.
.	.	.	[16eeJJ	.
.	8cnJ	8rEE	12eeL]	.
.	.	.	[24dd#XJk	.
=112	=112	=112	=112	=112
*	*	*	*	*^
4.r	4B	4.GG 4.C	8gg	8dd#]	8b\]
.	.	.	8.d#XL	8rc	8r
.	8B-X	.	.	8rc	8r
.	.	.	16eJk	.	.
*	*	*	*	*v	*v
=113||	=113||	=113||	=113||	=113||
*M2/8	*M2/8	*M2/8	*M2/8	*M2/8
4r	12dnL	4EE 4AA 4G	12raa	8gL
.	12c#X	.	24bb	.
.	.	.	24ffLL	8bJ
.	12cnJ	.	24ee	.
.	.	.	48raa	.
.	.	.	[48dd#XJJ	.
*	*	*	*v	*v
=114	=114	=114	=114
4r	8BL	8GG 8C 8B	8b 8dd#] 8gg
.	16.BL	8GG 8C	16.d#XLL
.	32B-XJJk	.	32eJJk
=115	=115	=115	=115
*	*	*	*^
4r	8r	8r	8r	8r
.	[8C	24GGLL	[8d#	24BnLL
.	.	24FF#	.	24A#
.	.	24FFnJJ	.	24AnJJ
=116||	=116||	=116||	=116||	=116||
*M9/16	*M9/16	*M9/16	*M9/16	*M9/16
4.r	4.C]	[4.EE	8d#]	[4.G#X
.	.	.	16b#X	.
.	.	.	[4.g#X	.
8.r	8.rc	8.EE]	.	8.G#]
=117	=117	=117	=117	=117
*	*v	*v	*	*
4.r	[4.CCC#X [4.CC#X	8g#L]	[4.A
.	.	16gnJk	.
.	.	4.e	.
8.r	8.CCC#] 8.CC#]	.	8.A]
=118	=118	=118	=118
*	*	*v	*v
*	*clefG2	*
*	*^	*^
[4.CCC#X [4.CC#X	16g#XLL	[4.A#X	8.raa	4.rc
.	16a#X	.	.	.
.	16gnJJ	.	.	.
.	[4.f#X	.	8raa	.
.	.	.	16aaa#X	.
8.CCC#_ 8.CC#_	.	8.A#_	8aa#X 8eee 8bbb#X	16.rc
.	.	.	.	32ff#X
.	.	.	16raa	16gg#X
=119	=119	=119	=119	=119
4.CCC#_ 4.CC#_	4.f#_	4.A#_	4.r	[4.cc#X
8.CCC#] 8.CC#]	8.f#]	8.A#]	8.r	8.cc#]
*	*	*	*v	*v
*	*v	*v	*
*	*clefF4	*clefF4
*	*	*^
=120	=120	=120	=120
4.r	[4.EEE [4.EE	8r	[4.GG#
.	.	16B#	.
.	.	[4.G#	.
8.r	8.EEE] 8.EE]	.	8.GG#]
=121	=121	=121	=121
4.r	[4.CCC#X [4.CC#X	8G#L]	[4.AA
.	.	16GnJk	.
.	.	4.E	.
8.r	8.CCC#] 8.CC#]	.	8.AA]
=122	=122	=122	=122
*	*	*v	*v
*	*	*clefG2
*	*^	*
*	*	*^	*
[4.CCC#X [4.CC#X	4.r	16G#XLL	[4.AA#X\	4.r
.	.	16A#X	.	.
.	.	16GnJJ	.	.
.	.	[4.F#	.	.
.	.	.	.	16qqa#X/LL
.	.	.	.	16qqcc#X/JJ
8.CCC#] 8.CC#]	[8.dn	.	8.AA#_	8ee#XL
.	.	.	.	[16eenJk
=123	=123	=123	=123	=123
*^	*	*	*	*
8.rc	4.CCC#X 4.CC#X	8.d]	8.F#]	8.AA#\]	8ee]
.	.	.	.	.	16r
*	*	*v	*v	*	*
*	*	*v	*v	*
*	*	*	*^
*	*	*clefG2	*	*
4.F#X 4.A#X	.	4.d	16r	16r
.	.	.	16ee#LL	8a#
.	.	.	16eenJJ	.
*	*^	*	*	*
.	16r	16r	.	16r	16r
.	[8FF#	16FF#LL	.	16ee#LL	8a#
.	.	[16CC#JJ	.	16eenJJ	.
=124	=124	=124	=124	=124	=124
.	8qFF#\]	8qCC#/]	.	.	.
8.E#X 8.A#X	8.rEE	8.r	16.c#XLL	16raa	16rc
.	.	.	.	16ff#XLL	8a#X
.	.	.	16.c##XJJ	.	.
.	.	.	.	16ee#XJJ	.
4.En 4.A#	8rEE	8.r	[8.d#X	16raa	16rc
.	.	.	.	16ggLL	8a#
.	[16FF#X	.	.	16ff#JJ	.
.	8.CC#X 8.FF#]	8.r	16.d#LL]	16raa	16rc
.	.	.	.	16ggLL	8a#
.	.	.	16.c##JJ	.	.
.	.	.	.	16ff#JJ	.
=125	=125	=125	=125	=125	=125
8.E#XL 8.A#X	8.rEE	8.r	16.c##XLL	16raa	16rc
.	.	.	.	16ggLL	8a#X
.	.	.	16.d#XJJ	.	.
.	.	.	.	16ff#XJJ	.
8.D#X 8.A#X	16r	16r	[4e	16r	16r
.	8FF#	16FF#LL	.	16ggLL	8a#
.	.	16CC#JJ	.	16ff#JJ	.
8.DnJ 8.A#X	16r	16r	.	16r	16r
.	8FF#	16FF#LL	32eLL_	16gg#LL	8a#
.	.	.	32.e]	.	.
.	.	16CC#JJ	.	16ggnJJ	.
.	.	.	32.d#XJJ	.	.
*	*v	*v	*	*	*
=126	=126	=126	=126	=126
[4.C#X [4.A#X	8rEE	[4.d#X	[4.gg#X	[4.a#X
.	[16FF#X	.	.	.
.	4.CC#X 4.FF#]	.	.	.
8.C#] 8.A#]	.	16.d#LL]	8gg#L]	8.a#]
.	.	16.eJJ	.	.
.	.	.	16ggnJk	.
=127	=127	=127	=127	=127
*v	*v	*	*	*
8.C#L 8.A#	16.d#LL	16r	16r
.	.	16gg#LL	8a#
.	16.e	.	.
.	.	16ggnJJ	.
8.A#	16.d#	16r	16r
.	.	16gg#LL	8a#
.	16.e	.	.
.	.	16ggnJJ	.
8.A#J	16.d#	16r	16r
.	.	16gg#LL	8a#
.	16.eJJ	.	.
.	.	16ggnJJ	.
*	*	*v	*v
=128	=128	=128
*M3/8	*M3/8	*M3/8
.	.	16qqddn/LL
.	.	16qqffn/JJ
8Dn 8B-X	8fn	8aanL
8FFFL	8r	8aa-X
8BBB-XJ	8r	8ggJ
=129	=129	=129
.	.	16qqb-X/LL
.	.	16qqdd/JJ
8FFL	4.r	8gg-XL
8D	.	8ff
8B-XJ	.	8eeJ
=130	=130	=130
*	*	*^
.	16qqd/LL	.	.
.	16qqf/JJ	.	.
4.r	8aL	24cccLL	[4.dd
.	.	24ddd	.
.	.	24ccc-XJJ	.
.	8a-X	[8bb-X	.
.	8gJ	24bb-LL]	.
.	.	24cccn	.
.	.	24aanJJ	.
=131	=131	=131	=131
4.r	8g-XL	[8aa-X	4.dd]
.	8f	24aa-LL]	.
.	.	24bb-X	.
.	.	24ggJJ	.
.	8eJ	8gg-X	.
*	*	*v	*v
*	*clefF4	*
*M9/16	*M9/16	*M9/16
=132	=132	=132
*	*	*^
4.r	[4.AAA-X [4.AA-X	8r	[4.c
.	.	16ee	.
.	.	[4.cc	.
8.r	8.AAA-] 8.AA-]	.	8.c]
=133	=133	=133	=133
4.r	[4.FFF [4.FF	8ccL]	[4.d-
.	.	16cc-Jk	.
.	.	4.a-X	.
8.r	8.FFF] 8.FF]	.	8.d-]
=134	=134	=134	=134
*	*^	*	*
4.r	8.An	[4.FF [4.BB-	16ccnLL	[4.dn
.	.	.	16dd	.
.	.	.	16cc-JJ	.
.	16A-LL	.	[4.b-	.
.	16B-	.	.	.
.	16GJJ	.	.	.
8.r	8.G-	8.FF_ 8.BB-_	.	8.d]
=135	=135	=135	=135	=135
*	*	*	*	*^
4.r	[8.F	4.FF_ 4.BB-_	4.b-_	16a-LL	[4.d
.	.	.	.	16b-	.
.	.	.	.	16gJJ	.
.	16FL]	.	.	[8.g-	.
.	[8EJ	.	.	.	.
8.r	8EL]	8.FF] 8.BB-]	8.b-]	8g-L]	8.d]
.	16FJ	.	.	16fJ	.
*	*v	*v	*	*	*
*	*	*	*v	*v
*	*	*clefF4	*
=136	=136	=136	=136
4.r	[4.AAA-X [4.AA-X	8r	[4.C
.	.	16e	.
.	.	[4.c	.
8.r	8.AAA-] 8.AA-]	.	8.C]
=137	=137	=137	=137
4.r	[4.FFF [4.FF	8cL]	[4.D-
.	.	16c-Jk	.
.	.	4.A-X	.
8.r	8.FFF] 8.FF]	.	8.D-]
*	*	*v	*v
*	*	*clefG2
=138	=138	=138
*	*^	*
*	*	*^	*
[4.FFF [4.FF	4.r	16cnLL	[4.Dn	4.r
.	.	16d	.	.
.	.	16c-JJ	.	.
.	.	[4.B-	.	.
.	.	.	.	16qqddLL
.	.	.	.	16qqffJJ
8.FFF] 8.FF]	[8.g-	.	8.D_	8aanL
.	.	.	.	[16aa-J
=139	=139	=139	=139	=139
*^	*	*	*	*
8.rc	4.FFF 4.FF	8.g-]	8.B-]	8.D\]	8aa-]
.	.	.	.	.	16r
*	*	*v	*v	*	*
*	*	*v	*v	*
*	*	*	*^
*	*	*clefG2	*	*
4.B- 4.d	.	4.g-X	16r	16r
.	.	.	16aanLL	8dd
.	.	.	16aa-JJ	.
*	*^	*	*	*
.	16r	16r	.	16r	16r
.	[8BB-	16BB-LL	.	16aaLL	8dd
.	.	[16FFJJ	.	16aa-JJ	.
=140	=140	=140	=140	=140	=140
.	8qBB-\]	8qFF/]	.	.	.
8.An 8.d	8.rEE	8.r	16.fLL	16raa	16rc
.	.	.	.	16bb-LL	8dd
.	.	.	16.f#XJJ	.	.
.	.	.	.	16aanJJ	.
4.A- 4.d	8rEE	8.r	[8.g	16raa	16rc
.	.	.	.	16ccc-LL	8dd
.	[16BB-X	.	.	16bb-JJ	.
.	8.FFn 8.BB-]	8.r	16.gLL]	16raa	16rc
.	.	.	.	16ccc-LL	8dd
.	.	.	16.f#JJ	.	.
.	.	.	.	16bb-JJ	.
=141	=141	=141	=141	=141	=141
8.A-L 8.d	8.rEE	8.r	16.f#XLL	16raa	16rc
.	.	.	.	16ccc-LL	8dd
.	.	.	16.gJJ	.	.
.	.	.	.	16bb-JJ	.
8.G 8.d	16r	16r	[4a-	16r	16r
.	8BB-	16BB-LL	.	16ccc-LL	8dd
.	.	16FFJJ	.	16bb-JJ	.
8.G-J 8.d	16r	16r	.	16r	16r
.	8BB-	16BB-LL	32a-LL_	16cccnLL	8dd
.	.	.	32.a-]	.	.
.	.	16FFJJ	.	16ccc-JJ	.
.	.	.	32.gnJJ	.	.
=142	=142	=142	=142	=142	=142
*	*v	*v	*	*	*
[4.F [4.d	8rEE	[4.g	16raa	16rc
.	.	.	[8cccn	[8dd
.	[16BB-X	.	.	.
.	4.FF 4.BB-]	.	8.ccc_	8.dd_
8.F] 8.d]	.	16.gLL]	8cccL]	8.dd]
.	.	16.a-XJJ	.	.
.	.	.	16ccc-XJk	.
*v	*v	*	*	*
=143	=143	=143	=143
8.FL 8.d	16.gLL	16raa	16rc
.	.	16cccnLL	8dd
.	16.a-X	.	.
.	.	16ccc-XJJ	.
8.d	16.g	16raa	16rc
.	.	16cccnLL	8dd
.	16.a-	.	.
.	.	16ccc-XJJ	.
8.dJ	16.g	16raa	16rc
.	.	16cccnLL	8dd
.	16.a-JJ	.	.
.	.	16ccc-XJJ	.
*	*	*v	*v
=144	=144	=144
*M3/8	*M3/8	*M3/8
.	.	16qqff#X/LL
.	.	16qqaa/JJ
8F#X 8d	8an	8ccc#XL
.	.	16qqff#/LL
.	.	16qqaa/JJ
16AAALL	8r	8ccc#
16DD	.	.
.	.	16qqff#/LL
.	.	16qqaa/JJ
16AA	8r	8ccc#J
16F#JJ	.	.
=145	=145	=145
.	.	16qqff#X/LL
.	.	16qqaa/JJ
8r	4.r	8ccc#XL
.	.	16qqff#/LL
.	.	16qqaa/JJ
16AALL	.	8ccc#
16D	.	.
.	.	16qqff#/LL
.	.	16qqaa/JJ
16A	.	8ccc#J
16f#JJ	.	.
*	*clefG2	*
=146	=146	=146
.	.	16qqff#X/LL
.	.	16qqaa/JJ
4.r	24eeLL	8ccc#XL
.	24ff#X	.
.	24ee-XJJ	.
.	[8dd	8cccn
.	24ddLL]	8bbJ
.	24een	.
.	24cc#XJJ	.
=147	=147	=147
4.r	[8ccn	8bb-XL
.	24ccLL]	8aa
.	24dd	.
.	24bnJJ	.
.	8b-X	8gg#XJ
*	*clefF4	*
=148	=148	=148
*	*	*^
*	*	*	*^
4.r	8A 8d 8a	24eeeLL	[4.ff#X	8r
.	.	24fff#X	.	.
.	.	24eee-XJJ	.	.
.	.	.	.	16qqf#X/LL
.	.	.	.	16qqa/JJ
.	8r	[4ddd	.	4cc#X\
.	8r	.	.	.
=149	=149	=149	=149	=149
4.r	4.r	8ddd]	8ff#]	24ccn\LL
.	.	.	.	24dd\
.	.	.	.	24b\JJ
.	.	16qqff#X/LL	.	.
.	.	16qqaa/JJ	.	.
.	.	4ccc#X	8rc	[4b-X\
.	.	.	8rc	.
*	*	*	*v	*v
=150	=150	=150	=150
4.r	4AA-X 4E-X 4A-X	8cccn	24b-LL]
.	.	.	24cc
.	.	.	24b--JJ
.	.	16qqcc/LL	.
.	.	16qqee-X/JJ	.
.	.	4gg	4a-X
.	8r	.	.
=151	=151	=151	=151
*	*	*v	*v
*	*clefG2	*
*	*^	*
4.r	24gg-XLL	8rc	4.r
.	24aa-X	.	.
.	24ffJJ	.	.
.	.	16qqc\LL	.
.	.	16qqe-X\JJ	.
.	[4een	4gn	.
=152	=152	=152	=152
4AAAn 4DD 4AAn	24eeLL]	8f#X	4.r
.	24ff#X	.	.
.	24ee-XJJ	.	.
.	.	16qqF#X\LL	.
.	.	16qqA\JJ	.
.	[4dd	8c#XL	.
.	.	16qqF#\LL	.
.	.	16qqA\JJ	.
8r	.	8c#J	.
=153	=153	=153	=153
4CCn 4FFn 4Cn	24ddLL]	8fn 8a	4.r
.	24een	.	.
.	24dd-XJJ	.	.
.	.	16qqA\LL	.
.	.	16qqcn\JJ	.
.	[4cc	8eL	.
.	.	16qqA\LL	.
.	.	16qqc\JJ	.
8r	.	8eJ	.
=154	=154	=154	=154
*M9/16	*M9/16	*M9/16	*M9/16
*	*v	*v	*
*	*	*^
4.EE-X 4.AA-X 4.E-X	16ccLL]	8.raa	4.rc
.	16ddn	.	.
.	16cc-XJJ	.	.
.	64%3cnLL 64%3e-X 64%3a-X 64%3b-X	8raa	.
.	64%3c 64%3e- 64%3a- 64%3b-	.	.
.	64%3c 64%3e- 64%3a- 64%3b-	.	.
.	.	16ccc	.
.	64%3cJJ 64%3e- 64%3a- 64%3b-	.	.
8.r	64%3cLL 64%3e- 64%3a- 64%3b-	8cc 8gg-X 8ddd	16.rc
.	64%3c 64%3e- 64%3a- 64%3b-	.	.
*	*	*clefF4	*
.	64%3c 64%3e- 64%3a- 64%3b-	.	32A-X
.	.	16rc	16B-X
.	64%3cJJ 64%3e- 64%3a- 64%3b-	.	.
=155	=155	=155	=155
4.r	64%3cLL 64%3e-X 64%3a-X 64%3b-X	4.r	4.E-X
.	64%3c 64%3e- 64%3a- 64%3b-	.	.
.	64%3c 64%3e- 64%3a- 64%3b-	.	.
.	64%3cJJ 64%3e- 64%3a- 64%3b-	.	.
.	64%3cLL 64%3e- 64%3a- 64%3b-	.	.
.	64%3c 64%3e- 64%3a- 64%3b-	.	.
.	64%3c 64%3e- 64%3a- 64%3b-	.	.
.	64%3cJJ 64%3e- 64%3a- 64%3b-	.	.
8.r	64%3cLL 64%3e- 64%3a- 64%3b-	8.r	8.r
.	64%3c 64%3e- 64%3a- 64%3b-	.	.
.	64%3c 64%3e- 64%3a- 64%3b-	.	.
.	64%3cJJ 64%3e- 64%3a- 64%3b-	.	.
*	*	*clefG2	*
=156	=156	=156	=156
4.EE-X 4.AA-X 4.E-X	16ccLL	8.raa	4.rc
.	16dd	.	.
.	16cc-XJJ	.	.
.	64%3cnLL 64%3e-X 64%3a-X 64%3b-X	8raa	.
.	64%3c 64%3e- 64%3a- 64%3b-	.	.
.	64%3c 64%3e- 64%3a- 64%3b-	.	.
.	.	16ccc	.
.	64%3cJJ 64%3e- 64%3a- 64%3b-	.	.
8.r	64%3cLL 64%3e- 64%3a- 64%3b-	8cc 8gg-X 8ddd	16.rc
.	64%3c 64%3e- 64%3a- 64%3b-	.	.
*	*	*clefF4	*
.	64%3c 64%3e- 64%3a- 64%3b-	.	32A-X
.	.	16rc	16B-X
.	64%3cJJ 64%3e- 64%3a- 64%3b-	.	.
=157	=157	=157	=157
4.r	64%3cLL 64%3e-X 64%3a-X 64%3b-X	8.r	4.E-X
.	64%3c 64%3e- 64%3a- 64%3b-	.	.
.	64%3c 64%3e- 64%3a- 64%3b-	.	.
.	64%3cJJ 64%3e- 64%3a- 64%3b-	.	.
*	*	*clefG2	*
.	64%3cLL 64%3e- 64%3a- 64%3b-	8ggL	.
.	64%3c 64%3e- 64%3a- 64%3b-	.	.
.	64%3c 64%3e- 64%3a- 64%3b-	.	.
.	.	16gg-J	.
.	64%3cJJ 64%3e- 64%3a- 64%3b-	.	.
8.r	64%3cLL 64%3e- 64%3a- 64%3b-	8ggnL	8.r
.	64%3c 64%3e- 64%3a- 64%3b-	.	.
.	64%3c 64%3e- 64%3a- 64%3b-	.	.
.	.	16gg-J	.
.	64%3cJJ 64%3e- 64%3a- 64%3b-	.	.
*	*clefF4	*	*
=158	=158	=158	=158
4.r	8.r	8ggnL	16rc
.	.	.	16ccLL
.	.	[16gg-XJk	16a-XJJ
.	16.cLL	8gg-L]	16rc
.	.	.	16ccLL
.	16.E-X	.	.
.	.	16ggnJk	16a-JJ
8.r	16.AA-X	16gg-XLL	16rc
.	.	16ff	16ccLL
.	16.EE-XJJ	.	.
.	.	16ff-XJJ	16a-JJ
=159	=159	=159	=159
*	*^	*	*
4.r	8rc	4.BBB 4.EEn 4.BB	4.dd#X	16rc
.	.	.	.	16bLL
.	16B	.	.	16gJJ
.	[8.G	.	.	16rc
.	.	.	.	16bLL
.	.	.	.	16gJJ
8.r	8GL]	8.rEE	8.ddn	16rc
.	.	.	.	16bLL
.	16G-XJk	.	.	16gnJJ
=160	=160	=160	=160	=160
*	*v	*v	*	*
4.r	8.E-X	16raa	8gL
.	.	16ccLL	.
.	.	16a-XJJ	[16g-XJk
.	16.cLL	16raa	8g-L]
.	.	16ccLL	.
.	16.E-	.	.
.	.	16a-JJ	16gnJk
8.r	16.AA-X	16raa	16g-XLL
.	.	16ccLL	16f
.	16.EE-XJJ	.	.
.	.	16a-JJ	16enJJ
=161	=161	=161	=161
*	*^	*	*
4.r	8rc	4.BBB 4.EEn 4.BB	16rc	[4.d#
.	.	.	16bLL	.
.	16Gn	.	16gnJJ	.
.	[8.D#	.	16rc	.
.	.	.	16bLL	.
.	.	.	16gJJ	.
8.r	8D#L]	8.rEE	16rc	8d#L]
.	.	.	16bLL	.
.	16DnJk	.	16gJJ	16eJ
*	*v	*v	*	*
=162	=162	=162	=162
4.r	8.BB	8dd#L	16rc
.	.	.	16g#LL
.	.	[16ddnXJk	16eJJ
.	16.G#LL	8ddL]	16rc
.	.	.	16g#LL
.	16.BB	.	.
.	.	16dd#Jk	16eJJ
8.r	16.EE	16ddnXLL	16rc
.	.	16cc#	16g#LL
.	16.BBBJJ	.	.
.	.	16ccnXJJ	16eJJ
=163	=163	=163	=163
*	*	*	*^
4.r	16.GGGnLL	4.b	16rc	8r
.	.	.	16gnXLL	.
.	16.CC	.	.	.
.	.	.	16e-XJJ	16e-
.	16.GGn	.	16rc	[8.B
.	.	.	16gLL	.
.	16.CJJ	.	.	.
.	.	.	16e-JJ	.
8.r	8.G	8.r	16rc	8BL]
.	.	.	16gLL	.
.	.	.	16e-JJ	16B-J
=164	=164	=164	=164	=164
4.r	16.E-LL	8r	16r	8.G
.	.	.	16e-LL	.
.	16.AA-	.	.	.
.	.	16cc-	16c-JJ	.
.	16.EE-	[8g.	16r	8.r
.	.	.	16e-LL	.
.	16.AAA-JJ	.	.	.
.	.	.	16c-JJ	.
8.r	8.r	8gL]	16r	8.r
.	.	.	16e-LL	.
.	.	16g-J	16c-JJ	.
*	*	*	*v	*v
=165	=165	=165	=165
4.r	16.BBBLL	8d#L	16r
.	.	.	16BLL
.	16.EEn	.	.
.	.	[16d#J	16GnJJ
.	16.BB	8d#L]	16r
.	.	.	16BLL
.	16.EnJJ	.	.
.	.	16dnJ	16GJJ
8.r	8.r	[8.g	8.r
.	.	.	.
.	.	.	.
=166	=166	=166	=166
4.r	16.E-LL	8g]	16r
.	.	.	16e-LL
.	16.AA-	.	.
.	.	16cc-	16c-JJ
.	16.EE-	[8.g	16r
.	.	.	16e-LL
.	16.AAA-JJ	.	.
.	.	.	16c-JJ
8.r	8.r	8gL]	16r
.	.	.	16e-LL
.	.	16g-J	16c-JJ
=167	=167	=167	=167
4.r	16.BBBLL	8d#L	16r
.	.	.	16BLL
.	16.EEn	.	.
.	.	[16d#J	16GnJJ
.	16.BB	8d#L]	16r
.	.	.	16BLL
.	16.EnJJ	.	.
.	.	16dnJ	16GJJ
8.r	8.r	[8.g	8.r
.	.	.	.
.	.	.	.
=168	=168	=168	=168
4.r	16.BBBLL	8gL]	16r
.	.	.	16BLL
.	16.EEn	.	.
.	.	[16d#J	16GnJJ
.	16.BB	8d#L]	16r
.	.	.	16BLL
.	16.EnJJ	.	.
.	.	16dnJ	16GJJ
8.r	[8.B	[8.g	8.r
.	.	.	.
.	.	.	.
*	*	*v	*v
=169	=169	=169
4.r	8.BL]	8gL]
.	.	16g-XJk
.	8.d#	8cc-XL
.	.	16b-Jk
8.r	8.gnJ	8ee-L
.	.	16ddnXJk
*	*	*^
=170	=170	=170	=170
4.r	8.r	8ggnL	16rc
.	.	.	16ccLL
.	.	[16gg-XJk	16a-XJJ
.	16.cLL	8gg-L]	16rc
.	.	.	16ccLL
.	16.E-X	.	.
.	.	16ggnJk	16a-JJ
8.r	16.AA-X	16gg-XLL	16rc
.	.	16ff	16ccLL
.	16.EE-XJJ	.	.
.	.	16ff-XJJ	16a-JJ
=171	=171	=171	=171
4.r	16.BBBXLL	4.dd#	16rc
.	.	.	16bLL
.	16.EEnX	.	.
.	.	.	16gnJJ
.	16.BBX	.	16rc
.	.	.	16bLL
.	16.EnJJ	.	.
.	.	.	16gnJJ
8.r	8.B	8.ddn	8.rc
*	*	*v	*v
*	*^	*
=172	=172	=172	=172
4.r	8rc	80%9BBBL	8r
.	.	80%9EE	.
.	[16G [16B	.	16g
.	4.G_ 4.B_	.	[4.d#X
.	.	80%9FF#X	.
.	.	80%9GG	.
8.r	.	.	.
.	.	80%9BBJ	.
=173	=173	=173	=173
*	*	*	*^
4.r	4.G] 4.B]	4.DDn 4.GG 4.Dn	8.r	8d#L]
.	.	.	.	16dnJk
.	.	.	16qqb/LL	.
.	.	.	16qqddn/JJ	.
.	.	.	8.ff#X	4.B
.	.	.	16qqb/LL	.
.	.	.	16qqdd/JJ	.
8.r	8.r	8.r	8.ff#	.
*	*v	*v	*	*
=174	=174	=174	=174
4.r	8.r	8ff#L	16rc
.	.	.	16bLL
.	.	[16ffnJk	16gJJ
.	16.BLL	8ffL]	16rc
.	.	.	16bLL
.	16.D	.	.
.	.	16ff#Jk	16gJJ
8.r	16.GG	16ffnLL	16rc
.	.	16ee	16bLL
.	16.DDJJ	.	.
.	.	16ee-XJJ	16gJJ
=175	=175	=175	=175
4.r	16.BBB-LL	4.ddn	16rc
.	.	.	16b-XLL
.	16.EE-	.	.
.	.	.	16g-XJJ
.	16.BB-	.	16rc
.	.	.	16b-LL
.	16.E-JJ	.	.
.	.	.	16g-JJ
8.r	8.B-	8.dd-	8.rc
*	*	*v	*v
*	*^	*
=176	=176	=176	=176
4.r	8rc	80%9BBB-L	8r
.	.	80%9EE-	.
.	[16G- [16B-	.	16g-
.	4.G-_ 4.B-_	.	[4.dn
.	.	80%9FF	.
.	.	80%9GG-	.
8.r	.	.	.
.	.	80%9BB-J	.
=177	=177	=177	=177
*	*	*	*^
4.r	4.G-] 4.B-]	4.DD- 4.GG- 4.D-	8.r	8dL]
.	.	.	.	16d-Jk
.	.	.	16qqb-/LL	.
.	.	.	16qqdd-/JJ	.
.	.	.	8.ffX	4.B-
.	.	.	16qqb-/LL	.
.	.	.	16qqdd-/JJ	.
8.r	8.r	8.r	8.ff	.
*	*v	*v	*	*
*	*	*v	*v
*	*	*clefF4
=178	=178	=178
*	*	*^
4.r	80%9D-L	[8.f	16r
.	.	.	16B-LL
.	80%9BB-	.	.
.	.	.	16G-JJ
.	.	16.fLL]	16r
.	80%9AA-	.	.
.	.	.	16B-LL
.	.	16.f-JJ	.
.	.	.	16G-JJ
.	80%9GG-	.	.
8.r	.	16.e-LL	16r
.	.	.	16B-LL
.	80%9DD-J	.	.
.	.	16.e--JJ	.
.	.	.	16G-JJ
=179	=179	=179	=179
*	*	*	*^
4.r	16.AAAnLL	[8.c#X	16rEE	8.r
.	.	.	16ALL	.
.	16.DDn	.	.	.
.	.	.	16FnJJ	.
.	16.EEn	8c#L]	16rEE	16r
.	.	.	[8A	16A\LL
.	16.FFnJJ	.	.	.
.	.	16cnJk	.	[16F\JJ
8.r	[8.C	[8.e	8.A]	8.F\]
*	*	*v	*v	*
=180	=180	=180	=180
4.r	80%9CL]	8.e_	16r
.	.	.	16ALL
.	80%9AA	.	.
.	.	.	16FJJ
.	.	16.eLL]	16r
.	80%9GG	.	.
.	.	.	16ALL
.	.	16.e-JJ	.
.	.	.	16FJJ
.	80%9FF	.	.
8.r	.	16.dLL	16r
.	.	.	16ALL
.	80%9CCJ	.	.
.	.	16.d-JJ	.
.	.	.	16FJJ
=181	=181	=181	=181
*	*	*	*^
4.r	16.AAA-LL	[8.c	16rEE	8.r
.	.	.	16A-LL	.
.	16.DD-	.	.	.
.	.	.	16F-JJ	.
.	16.EE-	8cL]	8.rEE	16r
.	.	.	.	16A-\LL
.	16.FF-JJ	.	.	.
.	.	16c-Jk	.	16F-\JJ
8.r	[8.Cn	[8.en	8.An	8.Fn\
*	*	*v	*v	*
=182	=182	=182	=182
4.r	80%9CL]	8.e_	16r
.	.	.	16ALL
.	80%9AAn	.	.
.	.	.	16FJJ
.	.	16.eLL]	16r
.	80%9GG	.	.
.	.	.	16ALL
.	.	16.e-JJ	.
.	.	.	16FJJ
.	80%9FFn	.	.
8.r	.	16.dLL	16r
.	.	.	16ALL
.	80%9CCJ	.	.
.	.	16.d-JJ	.
.	.	.	16FJJ
=183	=183	=183	=183
4.r	64%9AAA-L	[8.c	16r
.	.	.	16A-LL
.	.	.	16F-JJ
.	64%9DD-	.	.
.	.	8cL]	16r
.	.	.	16A-LL
.	64%9EE-	.	.
.	.	[16c-J	16F-JJ
8.r	.	8.c-]	16r
.	64%9FF-J	.	.
.	.	.	16A-LL
.	.	.	16F-JJ
=184	=184	=184	=184
4.r	[4.AAA-X [4.AA-X	8rc	[4.Cn
.	.	16en	.
.	.	[4.cn	.
8.r	8.AAA-] 8.AA-]	.	8.C]
=185	=185	=185	=185
4.r	[4.FFF [4.FF	8cL]	[4.D-X
.	.	16c-XJk	.
.	.	4.A-X	.
8.r	8.FFF] 8.FF]	.	8.D-]
=186	=186	=186	=186
4.r	[4.FFF [4.FF	16cnLL	[4.Dn
.	.	16d	.
.	.	16c-XJJ	.
.	.	[4.B-X	.
8.r	8.FFF_ 8.FF_	.	8.D_
=187	=187	=187	=187
4.r	4.FFF_ 4.FF_	4.B-]	4.D]
8.r	8.FFF] 8.FF]	8.Bn	8.D-X
=188	=188	=188	=188
4.r	[4.EEE [4.EE	8rc	[4.GG#X
.	.	16B#X	.
.	.	[4.G#X	.
8.r	8.EEE] 8.EE]	.	8.GG#]
=189	=189	=189	=189
4.r	[4.CCC#X [4.CC#X	8G#L]	[4.AA
.	.	16GnJk	.
.	.	4.E	.
8.r	8.CCC#] 8.CC#]	.	8.AA]
=190	=190	=190	=190
4.r	[4.CCC#X [4.CC#X	16G#XLL	[4.AA#X
.	.	16A#X	.
.	.	16GnJJ	.
.	.	[4.F#X	.
8.r	8.CCC#_ 8.CC#_	.	8.AA#_
=191	=191	=191	=191
4.r	4.CCC#_ 4.CC#_	4.F#]	4.AA#]
8.r	8.CCC#] 8.CC#]	8.G	8.AAn
*	*	*v	*v
*	*	*clefG2
=192	=192	=192
*M3/8	*M3/8	*M3/8
*	*^	*
*	*	*	*^
4.r	24A-XLL	8rEE	16e-XLL	4.c
.	24B-X	.	.	.
.	.	.	16enJJ	.
.	24GJJ	.	.	.
.	4G-X	16G-LL	8.f	.
.	.	16AA-X	.	.
.	.	16EE-X	.	.
.	.	16AAA-XJJ	[16f-X	.
=193	=193	=193	=193	=193
4.r	24GnLL	8rEE	16f-LL]	4.c
.	24A-X	.	.	.
.	.	.	16fnJJ	.
.	24FJJ	.	.	.
.	4F-X	16F-LL	8.g-X	.
.	.	16AA-X	.	.
.	.	16EE-X	.	.
.	.	16AAA-XJJ	16fn	.
*	*v	*v	*	*
*	*	*v	*v
*	*clefG2	*
*^	*	*
*	*	*^	*
*	*	*	*	*^
=194	=194	=194	=194	=194	=194
*	*	*	*	*	*^
[8qE-X/	[8qAAA-X\ [8qEE-X [8qAA-X	.	.	.	.	.
4.E-_	4.AAA-_ 4.EE-_ 4.AA-_	16fLL	4.c	24bb-XLL	8cc	8r
.	.	.	.	24ccc	.	.
.	.	16g-XJJ	.	.	.	.
.	.	.	.	24bb--JJ	.	.
.	.	16qqc/LL	.	.	.	.
.	.	16qqe-X/JJ	.	.	.	.
.	.	16gnLL	.	[4aa-X	16rc	8r
.	.	16g-XJJ	.	.	32ff-XLLL	.
.	.	.	.	.	32ccJJJ	.
.	.	16qqc/LL	.	.	.	.
.	.	16qqe-/JJ	.	.	.	.
.	.	16gnLL	.	.	16rc	16r
.	.	16g-XJJ	.	.	[16ff-	32ff-\LLL
.	.	.	.	.	.	[32cc\JJJ
=195	=195	=195	=195	=195	=195	=195
*	*	*v	*v	*	*	*
.	.	16qqc/LL	.	.	.
.	.	16qqe-X/JJ	.	.	.
4.E-]	4.AAA-] 4.EE-] 4.AA-]	16gnLL	8aa-]	8ff-]	8cc\]
.	.	16g-X	.	.	.
.	.	16ffn	8raa	8rc	8r
.	.	16ff-X	.	.	.
.	.	16cc	8raa	8rc	8r
.	.	16a-XJJ	.	.	.
*v	*v	*	*	*	*
*	*	*	*v	*v
*	*^	*	*
*	*clefF4	*	*	*
=196	=196	=196	=196	=196
4.r	24e--LL	8rEE	16b--LL	4.g-X
.	24f-X	.	.	.
.	.	.	16b-XJJ	.
.	24d-XJJ	.	.	.
.	4d--	24d--LL	8.cc-X	.
.	.	24G-X	.	.
.	.	24AA-X	.	.
.	.	24EE-X	.	.
.	.	24AAA-XJJ	.	.
.	.	.	[16b-	.
.	.	24rEE	.	.
=197	=197	=197	=197	=197
4.r	24d--LL	8rEE	16b-LL]	4.g-X
.	24e--	.	.	.
.	.	.	16cc-XJJ	.
.	24c-XJJ	.	.	.
.	4c--	24c--LL	8.dd--	.
.	.	24G-X	.	.
.	.	24AA-X	.	.
.	.	24EE-X	.	.
.	.	24AAA--JJ	.	.
.	.	.	16cc-X	.
.	.	24rEE	.	.
*	*v	*v	*	*
*	*	*v	*v
*	*clefG2	*
=198	=198	=198
*^	*^	*^
*	*	*	*	*	*^
[8qG-X/ [8qB-X	[8qAAA-X\ [8qEE-X [8qAA-X	.	.	.	.	.
4.G-_ 4.B-_	4.AAA-_ 4.EE-_ 4.AA-_	16cc-XLL	4.g-X	24fff-XLL	8gg-X	8r
.	.	.	.	24ggg-X	.	.
.	.	16ccnJJ	.	.	.	.
.	.	.	.	24eee-XJJ	.	.
.	.	16qqg-/LL	.	.	.	.
.	.	16qqb--/JJ	.	.	.	.
.	.	16dd-XLL	.	[4dddn	16rc	8r
.	.	16ccJJ	.	.	32bb-XLLL	.
.	.	.	.	.	32gg-JJJ	.
.	.	16qqg-/LL	.	.	.	.
.	.	16qqb--/JJ	.	.	.	.
.	.	16dd-LL	.	.	16rc	16r
.	.	16ccJJ	.	.	[16bb-	32bb-\LLL
.	.	.	.	.	.	[32gg-\JJJ
*	*	*v	*v	*	*	*
=199	=199	=199	=199	=199	=199
.	.	16qqg-X/LL	.	.	.
.	.	16qqb--/JJ	.	.	.
4.G-] 4.B-]	4.AAA-] 4.EE-] 4.AA-]	16dd-XLL	4.ddd]	8bb-]	8gg-\]
.	.	16cc	.	.	.
.	.	16ccc-X	.	8rc	8r
.	.	16bb-X	.	.	.
.	.	16gg-X	.	8rc	8r
.	.	16ddnJJ	.	.	.
*v	*v	*	*	*	*
*	*	*	*v	*v
*	*	*v	*v
*	*clefF4	*
=200	=200	=200
*	*^	*^
4.r	24A-XLL	8rEE	16e-XLL 16ee-X	4.cn 4.ccn
.	24B-X	.	.	.
.	.	.	16enJJ 16een	.
.	24GnJJ	.	.	.
.	4G-X	12G-L	8.f 8.ff	.
.	.	24AA-XJk	.	.
.	.	24EE-XLL	.	.
.	.	24AAA-XJJ	.	.
.	.	.	16f-X 16ff-X	.
.	.	24rEE	.	.
=201	=201	=201	=201	=201
4.r	24G-XLL	8rEE	16f-XLL 16ff-X	4.c 4.cc
.	24A-X	.	.	.
.	.	.	16fnJJ 16ffn	.
.	24FJJ	.	.	.
.	4F-X	12F-L	8.g-X 8.gg-X	.
.	.	24AA-XJk	.	.
.	.	24EE-XLL	.	.
.	.	24AAA-XJJ	.	.
.	.	.	16fn 16ffn	.
.	.	24rEE	.	.
=202	=202	=202	=202	=202
4.r	4.E-X	8rEE	16fLL 16ff	4.c 4.cc
.	.	.	16g-XJJ 16gg-X	.
.	.	.	16qqcc/LL	.
.	.	.	16qqee-X/JJ	.
.	.	16AAA-XLL	4ggn	.
.	.	16EE-X	.	.
.	.	16AA-X	.	.
.	.	16E-JJ	.	.
=203	=203	=203	=203	=203
*	*v	*v	*	*
4.r	8r	8raa	24b-XLL
.	.	.	24cc
.	.	.	24b--JJ
.	.	16qqa-X/LL	8.qa-
.	.	16qqcc/	.
.	.	16qqee-X/JJ	.
.	16AA-XLL	8ggL	8rc
.	16E-X	.	.
.	.	16qqcc/LL	.
.	.	16qqee-/JJ	.
.	16A-X	8ggJ	8rc
.	16e-XJJ	.	.
=204	=204	=204	=204
*	*^	*	*
4.r	24cLL	8rEE	16gLL 16gg	4.en 4.een
.	24d	.	.	.
.	.	.	16g#XJJ 16gg#X	.
.	24BnJJ	.	.	.
.	4B-X	24B-LL	8.a 8.aa	.
.	.	24C	.	.
.	.	24GG	.	.
.	.	24CC	.	.
.	.	24GGGJJ	.	.
.	.	.	16a-X 16aa-X	.
.	.	24rEE	.	.
=205	=205	=205	=205	=205
4.r	24B-XLL	8rEE	16a-XLL 16aa-X	4.e 4.ee
.	24c	.	.	.
.	.	.	16anJJ 16aan	.
.	24AJJ	.	.	.
.	4A-X	24A-LL	8.b-X 8.bb-X	.
.	.	24C	.	.
.	.	24GG	.	.
.	.	24CC	.	.
.	.	24GGGJJ	.	.
.	.	.	16an 16aan	.
.	.	24rEE	.	.
=206	=206	=206	=206	=206
4.r	4.G	8rEE	16aLL 16aa	4.e 4.ee
.	.	.	16b-XJJ 16bb-X	.
.	.	.	16qqee/LL	.
.	.	.	16qqgg/JJ	.
.	.	16GGGLL	4bbn	.
.	.	16CC	.	.
.	.	16GG	.	.
.	.	16EJJ	.	.
=207	=207	=207	=207	=207
*	*v	*v	*	*
4.r	8r	8raa	24ddLL
.	.	.	24ee
.	.	.	24dd-XJJ
.	.	16qqcc/LL	8.qcc
.	.	16qqee/	.
.	.	16qqgg/JJ	.
.	16GGLL	8bbL	8rc
.	16C	.	.
.	.	16qqee/LL	.
.	.	16qqgg/JJ	.
.	16G	8bbJ	8rc
.	16eJJ	.	.
=208	=208	=208	=208
*	*	*v	*v
*M9/16	*M9/16	*M9/16
*	*^	*^
4.r	16e-XLL	8.rEE	16.b-XLL 16.bb-X	[4.g [4.gg
.	16f	.	.	.
.	.	.	16.bnJJ 16.bbn	.
.	16dJJ	.	.	.
.	4.d-X	8rEE	[8.cc [8.ccc	.
.	.	16g	.	.
8.r	.	16d-LL	16.ccLL] 16.ccc]	8.g] 8.gg]
.	.	16E-XJJ	.	.
.	.	.	16.cc-XJJ 16.ccc-X	.
.	.	16rEE	.	.
=209	=209	=209	=209	=209
4.r	16d-XLL	8.rEE	16.cc-XLL 16.ccc-X	[4.g [4.gg
.	16e-	.	.	.
.	.	.	16.ccnJJ 16.cccn	.
.	16cJJ	.	.	.
.	4.c-X	8rEE	[8.dd- [8.ddd-	.
.	.	16e-	.	.
8.r	.	16GLL	16.dd-LL] 16.ddd-]	8.g] 8.gg]
.	.	16BB-XJJ	.	.
.	.	.	16.ccnJJ 16.cccn	.
.	.	16rEE	.	.
=210	=210	=210	=210	=210
4.r	4.B-XLL	8.rEE	16.ccLL 16.ccc	[4.g [4.gg
.	.	.	16.dd-JJ 16.ddd-	.
.	.	8rEE	[8.ddn [8.dddn	.
.	.	16B-	.	.
8.r	8.r	16E-LL	16.ddLL] 16.ddd]	8.g] 8.gg]
.	.	16GGJJ	.	.
.	.	.	16.dd-JJ 16.ddd-	.
.	.	16rEE	.	.
*	*v	*v	*	*
*	*	*v	*v
*	*clefG2	*
*	*^	*
=211	=211	=211	=211
32GLLL	8.raa	8.rc	16dd-XLL 16gg 16ccc-X 16ddd-X
32BB-X	.	.	.
32EE-XJJJ	.	.	16ddn 16gg 16ccc- 16dddn
32r	.	.	.
16r	.	.	[16ee-XJJ [16gg [16ccc- [16eee-X
8.r	32ddLLL	[8.g	16ee-LL] 16gg] 16ccc-] 16eee-]
.	32dd-XJJJ	.	.
.	8ddn	.	16dd 16gg 16ccc- 16ddd
.	.	.	16ee-JJ 16gg 16ccc- 16eee-
[8qBBB-X/ [8qEE- [8qBB-	.	.	.
8.BBB-] 8.EE-] 8.BB-] 8.G	16raa	16gLL]	16eenLL 16gg 16ccc- 16eeen
.	32ddLLL	16g	16ee-X 16gg 16ccc- 16eee-X
.	32dd-X	.	.
.	32ddn	16gJJ	16eenJJ 16gg 16ccc- 16eeen
.	32dd-XJJJ	.	.
=212||	=212||	=212||	=212||
*	*v	*v	*
*M3/4	*M3/4	*M3/4
*	*^	*
12r	16ddnLL	8g	8ff 8gg 8ddd-X 8fff
.	16dd-XJJ	.	.
24d-XLL	.	.	.
24E-X	8raa	8rc	8r
24GG	.	.	.
24GGGJJ	.	.	.
4r	4.A	4rc	8r
.	.	.	16qqa/LL
.	.	.	16qqdd-X/JJ
.	.	.	48ffLLL
.	.	.	48bb 48dddn 48fff 48ggg
.	.	.	48ff 48ddd-X
.	.	.	48bb 48dddn 48fff 48ggg
.	.	.	48ff 48ddd-X
.	.	.	48bbJJJ 48dddn 48fff 48ggg
6r	.	4rc	48ffLLL 48ddd-X
.	.	.	48fff 48ggg
.	.	.	48ff
.	.	.	48fff 48ggg
.	.	.	48ff
.	.	.	48fff 48ggg
.	[8B-X	.	48ff
.	.	.	48fff 48ggg
12E-	.	.	48ff
.	.	.	48fff 48ggg
.	.	.	48ff
.	.	.	48fffJJJ 48ggg
=213	=213	=213	=213
*	*v	*v	*
*^	*	*
4D#X	12.rEE	24B-KL]	4r
.	.	12B	.
.	24FFF#XLL 24FF#X	24d#XL	.
.	24D#	24e#X	.
.	24BJJ	24a#XJJ	.
4rc	8e#X	4.an	8r
.	.	.	16qqb/LL
.	.	.	16qqdd#X/JJ
.	8rEE	.	48ee#XLLL
.	.	.	48aa 48ddd#X 48fff#X 48ggg#X
.	.	.	48ee# 48aa#X
.	.	.	48aan 48ddd# 48fff# 48ggg#
.	.	.	48ee# 48aa#X
.	.	.	48aanJJJ 48ddd# 48fff# 48ggg#
4rc	4rEE	.	48ee#LLL 48aa#X
.	.	.	48fff# 48ggg#
.	.	.	48ee#
.	.	.	48fff# 48ggg#
.	.	.	48ee#
.	.	.	48fff# 48ggg#
.	.	[8g#X	48ee#
.	.	.	48fff# 48ggg#
.	.	.	48ee#
.	.	.	48fff# 48ggg#
.	.	.	48ee#
.	.	.	48fff#JJJ 48ggg#
=214	=214	=214	=214
*	*	*^	*
2r	12.r	4r	4g#]	48ff#XLLL
.	.	.	.	48fff#X 48ggg#X
.	.	.	.	48ff#
.	.	.	.	48fff# 48ggg#
.	.	.	.	48ff#
.	.	.	.	48fff#JJJ 48ggg#
.	24AAAnLL 24AAn	.	.	8r
.	24Dn	.	.	.
.	24AJJ	.	.	.
.	8f#X	4r	4b	8r
.	.	.	.	16qqdd/LL
.	.	.	.	16qqff#/JJ
.	8r	.	.	48gg#XLLL
.	.	.	.	48ccc 48fff# 48gggn 48aaa
.	.	.	.	48gg# 48ccc#X
.	.	.	.	48cccn 48fff# 48ggg 48aaa
.	.	.	.	48gg# 48ccc#X
.	.	.	.	48cccnJJJ 48fff# 48ggg 48aaa
8r	4r	12raa	4g#X	48gg#LLL
.	.	.	.	48ggg 48aaa
.	.	.	.	48gg#
.	.	.	.	48ggg 48aaa
.	.	24ff#X	.	48gg#
.	.	.	.	48ggg 48aaa
24.r	.	8dd 8gg#X	.	48gg#
.	.	.	.	48ggg 48aaa
.	.	.	.	48gg#
48dKLL	.	.	.	48ggg 48aaa
24eJJ	.	.	.	48gg#
.	.	.	.	48gggJJJ 48aaa
=215	=215	=215	=215	=215
*	*	*	*^	*
[8qA/	.	.	.	.	.
4A]	16ALL	4cc	8g#XL	4d\ 4f#X 4cc	48gg#XLLL
.	.	.	.	.	48ggg#X 48aaa
.	.	.	.	.	48gg#
.	16DJJ	.	.	.	48ggg# 48aaa
.	.	.	.	.	48gg#
.	.	.	.	.	48ggg# 48aaa
.	8rEE	.	8aJ	.	48gg#
.	.	.	.	.	48ggg# 48aaa
.	.	.	.	.	48gg#
.	.	.	.	.	48ggg# 48aaa
.	.	.	.	.	48gg#
.	.	.	.	.	48ggg#JJJ 48aaa
.	[4qBB	.	.	.	.
[8.qF#	.	.	.	.	.
.	.	.	.	.	16qqd#LL
.	.	.	.	.	16qqf#JJ
4F#X]	4BB]	2r	2r	2r	48a#XLLL
.	.	.	.	.	48ddn 48ggn 48aan 48bb
.	.	.	.	.	48a# 48dd#X
.	.	.	.	.	48ddn 48gg 48aa 48bb
.	.	.	.	.	48a# 48dd#X
.	.	.	.	.	48ddn 48gg 48aa 48bb
.	.	.	.	.	48a# 48dd#X
.	.	.	.	.	48ddn 48gg 48aa 48bb
.	.	.	.	.	48a# 48dd#X
.	.	.	.	.	48ddn 48gg 48aa 48bb
.	.	.	.	.	48a# 48dd#X
.	.	.	.	.	48ddnJJJ 48gg 48aa 48bb
*^	*	*	*	*	*
.	.	[4qBB-	.	.	.	.
.	[4qGn	.	.	.	.	.
[8.qe-	.	.	.	.	.	.
.	.	.	.	.	.	16qqgnLL
.	.	16qqBB-_	.	.	.	16qqb-JJ
4e-]	4G]	4BB-]	.	.	.	48ddLLL
.	.	.	.	.	.	48gg-X 48ccc-X 48ddd-X 48eee-X
.	.	.	.	.	.	48dd 48ggn
.	.	.	.	.	.	48gg-X 48ccc- 48ddd- 48eee-
.	.	.	.	.	.	48dd 48ggn
.	.	.	.	.	.	48gg-X 48ccc- 48ddd- 48eee-
.	.	.	.	.	.	48dd 48ggn
.	.	.	.	.	.	48gg-X 48ccc- 48ddd- 48eee-
.	.	.	.	.	.	48dd 48ggn
.	.	.	.	.	.	48gg-X 48ccc- 48ddd- 48eee-
.	.	.	.	.	.	48dd 48ggn
.	.	.	.	.	.	48gg-XJJJ 48ccc- 48ddd- 48eee-
*	*v	*v	*	*	*	*
*v	*v	*	*	*	*
*	*	*v	*v	*
*	*v	*v	*
=216	=216	=216
12AA#X 12F#X 12en	4b#X 4een 4gg#X	4bb#X 4eeen 4ggg#X
24eLL	.	.
24F#	.	.
24AA#	.	.
24AAA#XJJ	.	.
4r	4.B#X	8r
.	.	16qqb#X/LL
.	.	16qqee/JJ
.	.	48gg#XLLL
.	.	48ccc##X 48eee#X 48ggg# 48aaa#X
.	.	48gg# 48eeen
.	.	48ccc## 48eee#X 48ggg# 48aaa#
.	.	48gg# 48eeen
.	.	48ccc##JJJ 48eee#X 48ggg# 48aaa#
6r	.	48gg#LLL 48eeen
.	.	48ggg# 48aaa#
.	.	48gg#
.	.	48ggg# 48aaa#
.	.	48gg#
.	.	48ggg# 48aaa#
.	[8c#X	48gg#
.	.	48ggg# 48aaa#
12F#	.	48gg#
.	.	48ggg# 48aaa#
.	.	48gg#
.	.	48ggg#JJJ 48aaa#
=217	=217	=217
*^	*	*
4F#X	12.rEE	24c#KL]	4r
.	.	12d	.
.	24AAAnLL 24AAn	24f#XL	.
.	24F#	24g#X	.
.	24dJJ	24cc#XJJ	.
4rc	8g#X	4.ccn	8r
.	.	.	16qqdd/LL
.	.	.	16qqff#X/JJ
.	8r	.	48gg#XLLL
.	.	.	48ccc 48fff#X 48aaan 48bbb
.	.	.	48gg# 48ccc#X
.	.	.	48cccn 48fff# 48aaa 48bbb
.	.	.	48gg# 48ccc#X
.	.	.	48cccnJJJ 48fff# 48aaa 48bbb
4rc	4rEE	.	48gg#LLL 48ccc#X
.	.	.	48aaa 48bbb
.	.	.	48gg#
.	.	.	48aaa 48bbb
.	.	.	48gg#
.	.	.	48aaa 48bbb
.	.	[8b	48gg#
.	.	.	48aaa 48bbb
.	.	.	48gg#
.	.	.	48aaa 48bbb
.	.	.	48gg#
.	.	.	48aaaJJJ 48bbb
=218	=218	=218	=218
*v	*v	*	*
12.r	4b]	48gg#XLLL
.	.	48aaa 48bbb
.	.	48gg#
.	.	48aaa 48bbb
.	.	48gg#
.	.	48aaaJJJ 48bbb
24AAALL 24AA	.	8r
24D	.	.
24AJJ	.	.
8f#X	4dd	8r
.	.	16qqdd/LL
.	.	16qqff#X/JJ
8r	.	48gg#LLL
.	.	48ccc 48fff#X 48aaa 48bbb
.	.	48gg# 48ccc#X
.	.	48cccn 48fff# 48aaa 48bbb
.	.	48gg# 48ccc#X
.	.	48cccnJJJ 48fff# 48aaa 48bbb
4r	4b	48r
.	.	48cccLLL 48fff# 48aaa 48bbb
.	.	48gg# 48ccc#X
.	.	48cccn 48fff# 48aaa 48bbb
.	.	48gg# 48ccc#X
.	.	48cccn 48fff# 48aaa 48bbb
.	.	48gg# 48ccc#X
.	.	48cccn 48fff# 48aaa 48bbb
.	.	48gg# 48ccc#X
.	.	48cccn 48fff# 48aaa 48bbb
.	.	48gg# 48ccc#X
.	.	48cccnJJJ 48fff# 48aaa 48bbb
=219	=219	=219
*	*^	*
[2.FF#X [2.BB [2.F#X	[2.d#X [2.dd#X	[2.f#X [2.b	4r
.	.	.	16qqdd#X/LL
.	.	.	16qqff#X/JJ
.	.	.	48aa#XLLL
.	.	.	48dddn 48gggn 48aaan 48bbb
.	.	.	48aa# 48ddd#X
.	.	.	48dddn 48ggg 48aaa 48bbb
.	.	.	48aa# 48ddd#X
.	.	.	48dddn 48ggg 48aaa 48bbb
.	.	.	48aa# 48ddd#X
.	.	.	48dddn 48ggg 48aaa 48bbb
.	.	.	48aa# 48ddd#X
.	.	.	48dddn 48ggg 48aaa 48bbb
.	.	.	48aa# 48ddd#X
.	.	.	48dddnJJJ 48ggg 48aaa 48bbb
.	.	.	16qqdd#/LL
.	.	.	16qqff#/JJ
.	.	.	48aa#LLL
.	.	.	48ddd 48ggg 48aaa 48bbb
.	.	.	48aa# 48ddd#X
.	.	.	48dddn 48ggg 48aaa 48bbb
.	.	.	48aa# 48ddd#X
.	.	.	48dddn 48ggg 48aaa 48bbb
.	.	.	48aa# 48ddd#X
.	.	.	48dddn 48ggg 48aaa 48bbb
.	.	.	48aa# 48ddd#X
.	.	.	48dddn 48ggg 48aaa 48bbb
.	.	.	48aa# 48ddd#X
.	.	.	48dddnJJJ 48ggg 48aaa 48bbb
=220	=220	=220	=220
.	.	.	16qqdd#LL
.	.	.	16qqff#JJ
2.FF#] 2.BB] 2.F#]	4d#] 4dd#]	2.f#] 2.b]	48aa#LLL
.	.	.	48dddn 48ggg 48aaan 48aaa#X 48bbb
.	.	.	48dd#X 48aan 48aa#X 48ddd#X
.	.	.	48dddn 48ggg 48aaan 48aaa#X 48bbb
.	.	.	48dd#X 48aan 48aa#X 48ddd#X
.	.	.	48dddn 48ggg 48aaan 48aaa#X 48bbb
.	.	.	48dd#X 48aan 48aa#X 48ddd#X
.	.	.	48dddn 48ggg 48aaan 48aaa#X 48bbb
.	.	.	48dd#X 48aan 48aa#X 48ddd#X
.	.	.	48dddn 48ggg 48aaan 48aaa#X 48bbb
.	.	.	48dd#X 48aan 48aa#X 48ddd#X
.	.	.	48dddnJJJ 48ggg 48aaan 48aaa#X 48bbb
.	4f# 4ff#	.	48aa#XLLL
.	.	.	48aaa#X 48bbb
.	.	.	48aa#
.	.	.	48aaa# 48bbb
.	.	.	48aa#
.	.	.	48aaa# 48bbb
.	.	.	48aa#
.	.	.	48aaa# 48bbb
.	.	.	48aa#
.	.	.	48aaa# 48bbb
.	.	.	48aa#
.	.	.	48aaa#JJJ 48bbb
.	4d# 4dd#	.	48aa#LLL
.	.	.	48aaa# 48bbb
.	.	.	48aa#
.	.	.	48aaa# 48bbb
.	.	.	48aa#
.	.	.	48aaa# 48bbb
.	.	.	48aa#
.	.	.	48aaa# 48bbb
.	.	.	48aa#
.	.	.	48aaa# 48bbb
.	.	.	48aa#
.	.	.	48aaa#JJJ 48bbb
*	*v	*v	*
=221	=221	=221
[8qCC/ [8qFFn [8qC	.	.
2.CC] 2.FF] 2.C] 2.An 2.c	2.g 2.an 2.cc 2.gg	4r
.	.	16qqee/LL
.	.	16qqgg/JJ
.	.	64bbLLLL
.	.	64ccc 64eee 64ggg 64bbb
.	.	64een 64gg 64bb 64eee-X
.	.	64ccc 64eeen 64ggg 64bbb
.	.	64een 64gg 64bb 64eee-X
.	.	64ccc 64eeen 64ggg 64bbb
.	.	64een 64gg 64bb 64eee-X
.	.	64ccc 64eeen 64ggg 64bbb
.	.	64een 64gg 64bb 64eee-X
.	.	64ccc 64eeen 64ggg 64bbb
.	.	64een 64gg 64bb 64eee-X
.	.	64ccc 64eeen 64ggg 64bbb
.	.	64een 64gg 64bb 64eee-X
.	.	64ccc 64eeen 64ggg 64bbb
.	.	64een 64gg 64bb 64eee-X
.	.	64cccJJJJ 64eeen 64ggg 64bbb
.	.	16qqeen/LL
.	.	16qqgg/JJ
.	.	64bbLLLL
.	.	64ccc 64eee 64ggg 64bbb
.	.	64een 64gg 64bb 64eee-X
.	.	64ccc 64eeen 64ggg 64bbb
.	.	64een 64gg 64bb 64eee-X
.	.	64ccc 64eeen 64ggg 64bbb
.	.	64een 64gg 64bb 64eee-X
.	.	64ccc 64eeen 64ggg 64bbb
.	.	64een 64gg 64bb 64eee-X
.	.	64ccc 64eeen 64ggg 64bbb
.	.	64een 64gg 64bb 64eee-X
.	.	64ccc 64eeen 64ggg 64bbb
.	.	64een 64gg 64bb 64eee-X
.	.	64ccc 64eeen 64ggg 64bbb
.	.	64een 64gg 64bb 64eee-X
.	.	64cccJJJJ 64eeen 64ggg 64bbb
=222	=222	=222
*	*clefF4	*
*M9/16	*M9/16	*M9/16
*	*^	*
4.r	8.rc	8.rEE	8r
.	.	.	32aLLL
.	.	.	32ccJJJ
.	.	[8qCC\ [8qFF [8qC	.
.	4.A 4.c 4.e 4.g	4.CC] 4.FF] 4.C]	[8.ee
8.r	.	.	8ee]
.	.	.	32aLLL
.	.	.	32ccJJJ
=223	=223	=223	=223
4.rr	4.A 4.c 4.e 4.g	4.rEE	[8.ee
.	.	.	8ee]
.	.	.	32aLLL
.	.	.	32ccJJJ
8.r	8.A 8.c 8.e 8.g	8.rEE	8.ee
=224||	=224||	=224||	=224||
*	*v	*v	*
*	*	*^
4.r	8.r	8eeL	16rc
.	.	.	16aLL
.	.	[16ee-XJk	16fJJ
.	16.ALL	8ee-L]	16rc
.	.	.	16aLL
.	16.C	.	.
.	.	16eenJk	16fJJ
8.r	16.FF	16ee-XLL	16rc
.	.	16dd	16aLL
.	16.CCJJ	.	.
.	.	16dd-XJJ	16fJJ
=225	=225	=225	=225
4.r	16.AAA-XLL	4.cc	16rc
.	.	.	16a-XLL
.	16.DD-X	.	.
.	.	.	16f-XJJ
.	16.AA-X	.	16rc
.	.	.	16a-LL
.	16.D-XJJ	.	.
.	.	.	16f-JJ
8.r	16.A-X	8.cc-X	8.rc
.	16.r	.	.
=226	=226	=226	=226
4.r	8.r	8eeL	16rc
.	.	.	16anLL
.	.	[16ee-XJk	16fnJJ
.	16.AnLL	8ee-L]	16rc
.	.	.	16aLL
.	16.C	.	.
.	.	16eenJk	16fJJ
8.r	16.FF	16ee-XLL	16rc
.	.	16dd	16aLL
.	16.CCJJ	.	.
.	.	16dd-XJJ	16fJJ
=227	=227	=227	=227
4.r	16.AAA-XLL	[8.cc	16rc
.	.	.	16a-XLL
.	16.DD-X	.	.
.	.	.	16f-XJJ
.	16.AA-X	8ccL]	16rc
.	.	.	16a-LL
.	16.D-XJJ	.	.
.	.	16cc-J	16f-JJ
8.r	16.A-X	8.a-	8.rc
.	16.r	.	.
=228	=228	=228	=228
4.r	8.r	8ccnL	16rc
.	.	.	16fnLL
.	.	[16cc-Jk	16d-JJ
.	16.FLL	8cc-L]	16rc
.	.	.	16fLL
.	16.AA-	.	.
.	.	16ccJk	16d-JJ
8.r	16.DD-	16cc-XLL	16rc
.	.	16b-	16fLL
.	16.AAA-JJ	.	.
.	.	16b--XJJ	16d-JJ
=229	=229	=229	=229
4.r	16.EEELL	8g#L	16rc
.	.	.	16eLL
.	16.AAAn	.	.
.	.	[16gJk	16cnJJ
.	16.EE	8gL]	16rc
.	.	.	16eLL
.	16.AAnJJ	.	.
.	.	16g#Jk	16cJJ
8.r	16.E	16gXLL	8.rc
.	.	16f#	.
.	16.r	.	.
.	.	16fXJJ	.
=230	=230	=230	=230
4.r	16.CLL	[8.e	16rc
.	.	.	16cLL
.	16.FF	.	.
.	.	.	16A-JJ
.	16.CC	8eL]	16rc
.	.	.	16cLL
.	16.FFFJJ	.	.
.	.	16e-Jk	16A-JJ
8.r	8.r	[8.c	8.r
=231	=231	=231	=231
4.r	16.AAA-LL	8.c_	16rc
.	.	.	16A-LL
.	16.DD-	.	.
.	.	.	16F-JJ
.	16.AA-	8cL]	16rc
.	.	.	16A-LL
.	16.D-JJ	.	.
.	.	16c-Jk	16F-JJ
8.r	8.r	[8.en	8.r
=232	=232	=232	=232
4.r	16.CLL	8.e_	16rc
.	.	.	16cnLL
.	16.FF	.	.
.	.	.	16A-JJ
.	16.CC	8eL]	16rc
.	.	.	16cLL
.	16.FFFJJ	.	.
.	.	16e-Jk	16A-JJ
8.r	8.r	[8.c	8.r
=233	=233	=233	=233
4.r	16.AAA-LL	8.c_	16rc
.	.	.	16A-LL
.	16.DD-	.	.
.	.	.	16F-JJ
.	16.AA-	8cL]	16rc
.	.	.	16A-LL
.	16.D-JJ	.	.
.	.	16c-Jk	16F-JJ
8.r	8.r	8.f-	8.r
=234	=234	=234	=234
4.r	16.AAA-LL	[8.cn	16rc
.	.	.	16A-LL
.	16.DD-	.	.
.	.	.	16F-JJ
.	16.AA-	8cL]	16rc
.	.	.	16A-LL
.	16.D-JJ	.	.
.	.	16c-Jk	16F-JJ
8.r	[8.A-	[8.f-	8.r
=235	=235	=235	=235
*	*	*v	*v
4.r	8.A-L]	8f-L]
.	.	16e-XJk
.	8.cn	8a-XL
.	.	16a--Jk
8.r	8.f-XJ	8ccnL
.	.	16cc-XJk
*	*^	*^
=236	=236	=236	=236	=236
4.r	8.rc	8.rEE	8.raa	8rc
.	.	[8qAAA-X\ [8qDD-X [8qAA-X	.	.
.	.	.	.	32fnLLL
.	.	.	.	32a-XJJJ
.	4.F 4.A-X 4.c 4.e-X	4.AAA-] 4.DD-] 4.AA-]	4.ff	[8.ccn
8.r	.	.	.	8cc]
.	.	.	.	32fLLL
.	.	.	.	32a-JJJ
=237	=237	=237	=237	=237
4.r	4.F 4.A-X 4.c 4.e-X	4.r	4.ff	[8.cc
.	.	.	.	8cc]
.	.	.	.	32fLLL
.	.	.	.	32a-XJJJ
8.r	8.F 8.A- 8.c 8.e-	8.r	8.ff	8.cc
*	*v	*v	*	*
=238	=238	=238	=238
4.r	8.r	8ccL	16rc
.	.	.	16fLL
.	.	[16cc-XJk	16d-XJJ
.	16.FLL	8cc-L]	16rc
.	.	.	16fLL
.	16.AA-X	.	.
.	.	16ccnJk	16d-JJ
8.r	16.DD-X	16cc-XLL	16rc
.	.	16b-X	16fLL
.	16.AAA-XJJ	.	.
.	.	16anJJ	16d-JJ
=239	=239	=239	=239
4.r	16.EEELL	4.g#X	16rc
.	.	.	16eLL
.	16.AAAn	.	.
.	.	.	16cnJJ
.	16.EE	.	16rc
.	.	.	16eLL
.	16.AAnJJ	.	.
.	.	.	16cJJ
8.r	8.E	8.gn	8.rc
=240	=240	=240	=240
4.r	8.r	8.r	4.r
.	.	16qqe/LL	.
.	.	16qqg/JJ	.
.	8.GGGL	4.b	.
8.r	8.CCJ	.	8.r
=241	=241	=241	=241
4.r	8.GGL	8.raa	4.rc
.	.	16qqe/LL	.
.	.	16qqg/JJ	.
.	8.EJ	4.b	.
8.r	8.r	.	16dLL
.	.	.	16e
.	.	.	16d-XJJ
=242	=242	=242	=242
4.r	8.r	8bL	16rc
.	.	.	16eLL
.	.	[16b-XJk	16cJJ
.	16.ELL	8b-L]	16rc
.	.	.	16eLL
.	16.GG	.	.
.	.	16bnJk	16cJJ
8.r	16.CC	16b-XLL	16rc
.	.	16a	16eLL
.	16.GGGJJ	.	.
.	.	16a-XJJ	16cJJ
=243	=243	=243	=243
4.r	16.EEE-XLL	4.g	16rc
.	.	.	16e-XLL
.	16.AAA-X	.	.
.	.	.	16c-XJJ
.	16.EE-X	.	16rc
.	.	.	16e-LL
.	16.AA-XJJ	.	.
.	.	.	16c-JJ
8.r	8.E-X	8.g-X	8.rc
*	*	*v	*v
=244	=244	=244
4.r	8.r	8.r
.	.	16qqd#X/LL
.	.	16qqf#X/JJ
.	8.FFF#XL	4.a#X
8.r	8.BBBJ	.
=245	=245	=245
*	*^	*
4.r	4.rc	8.FF#XL	8.r
.	.	.	16qqd#X/LL
.	.	.	16qqf#X/JJ
.	.	8.D#XJ	4.a#X
8.r	[8.c#X	8.rEE	.
=246	=246	=246	=246
*	*v	*v	*
*M3/8	*M3/8	*M3/8
*	*^	*
4.r	24c#LL]	8FFF#X 8BBB 8FF#X 8D#X	8r
.	24d#X	.	.
.	24cnJJ	.	.
.	.	.	16qqd#X/LL
.	.	.	16qqf#X/JJ
.	[4B	8rEE	4a#X
.	.	8rEE	.
=247	=247	=247	=247
4.r	8B]	4rEE	24anLL
.	.	.	24b
.	.	.	24g#XJJ
.	16qqD#X/LL	.	.
.	16qqF#X/JJ	.	.
.	4A#X	.	[4gn
.	.	8rEE	.
=248	=248	=248	=248
*	*	*	*^
4.r	8An	8FFFn 8CC 8C	24gLL]	8rc
.	.	.	24a	.
.	.	.	24g-XJJ	.
.	.	.	16qqa/LL	.
.	.	.	16qqcc/JJ	.
.	8rc	8rEE	4ee	4f
.	8rc	8rEE	.	.
=249	=249	=249	=249	=249
4.rr	4.rc	4.rEE	24ee-XLL	8rc
.	.	.	24ff	.
.	.	.	24ddJJ	.
.	.	.	.	16qqA\LL
.	.	.	.	16qqcn\JJ
.	.	.	[4cc#X	4en
=250	=250	=250	=250	=250
4.r	8rc	8FFF#X 8BBB 8BB	24cc#LL]	[4.d#X
.	.	.	24dd#X	.
.	.	.	24ccnJJ	.
.	16qqD#X/LL	.	.	.
.	16qqF#X/JJ	.	.	.
.	4A#X	8rEE	[4b	.
.	.	8rEE	.	.
=251	=251	=251	=251	=251
4.rr	24AnLL	4.rEE	8b]	8d#]
.	24B	.	.	.
.	24G#XJJ	.	.	.
.	.	.	16qqd#X/LL	.
.	.	.	16qqf#X/JJ	.
.	[4Gn	.	4a#X	8rc
.	.	.	.	8rc
=252	=252	=252	=252	=252
4.r	24GLL]	8FFFn 8CC 8C	8an	8rc
.	24A	.	.	.
.	24G-XJJ	.	.	.
.	.	.	16qqA/LL	.
.	.	.	16qqc/JJ	[8qA\
.	4F	8rEE	4e	4A]
.	.	8rEE	.	.
=253	=253	=253	=253	=253
*	*v	*v	*	*
4.r	8FFF#XL	24d#XLL	4.A
.	.	24e#X	.
.	.	24dnJJ	.
.	8BBB	4c#X	.
.	8BBJ	.	.
=254	=254	=254	=254
4.r	8CnL	8raa	8rc
.	.	16qqA/LL	.
.	.	16qqcn/JJ	[8qA\
.	8CCn	4e	4A]
.	8FFFnJ	.	.
=255	=255	=255	=255
4.r	8FFF#XL	24d#XLL	4.A
.	.	24e#X	.
.	.	24dnJJ	.
.	8BBB	4c#X	.
.	8BBJ	.	.
=256	=256	=256	=256
*	*	*v	*v
4.r	8CnL	8r
.	.	16qqA/LL
.	.	16qqcn/JJ
.	8CCn	4e
.	[8FFFJ	.
=257	=257	=257
.	.	16qqA/LL
.	.	16qqc/JJ
4.r	8FFFL]	4e
.	8CC	.
.	.	16qqA/LL
.	.	16qqc/JJ
.	8CJ	[8e
=258	=258	=258
4.r	4r	8e]
.	.	8r
.	.	16qqA/LL
.	.	16qqc/JJ
.	[8FF [8C	[8e
=259	=259	=259
4.r	8FF] 8C]	8e]
.	.	16qqc#X/LL
.	.	16qqe/JJ
.	4EE 4C#X 4A	4g#X
*	*clefG2	*
=260	=260	=260
*M3/4	*M3/4	*M3/4
*^	*	*
.	.	.	16qqf#X/LL
.	.	.	16qqb-X/JJ
4EE 4Cn 4B-X	4rEE	4r	4dd
.	.	.	16qqf#/LL
.	.	.	16qqb-/JJ
12rc	4rEE	4.F#X	4dd
12dL	.	.	.
12B-J	.	.	.
.	.	.	16qqg/LL
.	.	.	16qqb-/JJ
6C	12CL	.	4dd
.	12EEJ	.	.
.	.	[8G	.
12C	12rEE	.	.
=261	=261	=261	=261
*	*	*	*tremolo
.	.	.	16qqa-LL
.	.	.	16qqccJJ
2.C	2.EE-	24GL]	32ddLLL
.	.	.	32ee- 32ffn
.	.	12A-	.
.	.	.	32dd
.	.	.	32ee- 32ff
.	.	24c	32dd
.	.	.	32ee- 32ff
.	.	24d	.
.	.	.	32dd
.	.	24gJ	.
.	.	.	32ee-JJJ 32ff
.	.	.	16qqa-LL
.	.	.	16qqccJJ
.	.	4.g-	32ddLLL
.	.	.	32ee- 32ff
.	.	.	32dd
.	.	.	32ee- 32ff
.	.	.	32dd
.	.	.	32ee- 32ff
.	.	.	32dd
.	.	.	32ee-JJJ 32ff
.	.	.	16qqa-LL
.	.	.	16qqccJJ
.	.	.	32ddLLL
.	.	.	32ee- 32ff
.	.	.	32dd
.	.	.	32ee- 32ff
.	.	[8f	32dd
.	.	.	32ee- 32ff
.	.	.	32dd
.	.	.	32ee-JJJ 32ff
*	*	*	*Xtremolo
=262	=262	=262	=262
.	.	.	16qqb/LL
.	.	.	16qqdd#X/JJ
2r	16r	4f]	4ee#X
.	16FF#XLL	.	.
.	16BB	.	.
.	16F#XJJ	.	.
.	.	.	16qqb/LL
.	.	.	16qqdd#/JJ
.	8d#X	4g#X	4ee#
.	8r	.	.
.	.	.	16qqb/LL
.	.	.	16qqdd#/JJ
8r	4r	4e#X	16ee#LL
.	.	.	16dd#J
24.r	.	.	8ee#J
48BKLL	.	.	.
24c#XJJ	.	.	.
=263	=263	=263	=263
*v	*v	*	*
*	*^	*
[8qF#X/	.	.	16qqb/LL
.	.	.	16qqdd#X/JJ
16F#LL]	4a	8B 8d#X 8e#X	[8ee#L
16BBJJ	.	.	.
8r	.	8rc	40ee#LL]
.	.	.	40dd#
.	.	.	40b
.	.	.	40e#X
.	.	.	40f#XJJJ
.	.	.	16qqc/LL
.	.	.	16qqe-/JJ
4AA-X 4E-X	4raa	4rc	4g
.	.	.	16qqen/LL
.	.	.	16qqg/JJ
4GG 4En 4c	4raa	4rc	4b
=264	=264	=264	=264
*	*v	*v	*
*^	*	*
.	.	.	16qqa/LL
.	.	.	16qqdd-X/JJ
4GG 4E-X 4d-X	4rEE	4r	4ffn
.	.	.	16qqf/LL
.	.	.	16qqdd-/JJ
12rc	4rEE	4.A	4ff
12fL	.	.	.
12d-J	.	.	.
.	.	.	16qqb-X/LL
.	.	.	16qqdd-/JJ
6E-	12E-L	.	4ff
.	12GGJ	.	.
.	.	[8B-X	.
12E-	12rEE	.	.
=265	=265	=265	=265
*	*	*	*tremolo
.	.	.	16qqbnLL
.	.	.	16qqdd#JJ
2.D#	2.FF#	24B-L]	32ee#LLL
.	.	.	32ff# 32gg#
.	.	12Bn	.
.	.	.	32ee#
.	.	.	32ff# 32gg#
.	.	24d#	32ee#
.	.	.	32ff# 32gg#
.	.	24e#	.
.	.	.	32ee#
.	.	24a#J	.
.	.	.	32ff#JJJ 32gg#
.	.	.	16qqbLL
.	.	.	16qqdd#JJ
.	.	4.an	32ee#LLL
.	.	.	32ff# 32gg#
.	.	.	32ee#
.	.	.	32ff# 32gg#
.	.	.	32ee#
.	.	.	32ff# 32gg#
.	.	.	32ee#
.	.	.	32ff#JJJ 32gg#
.	.	.	116qqbLL
.	.	.	16qqdd#JJ
.	.	.	32ee#LLL
.	.	.	32ff# 32gg#
.	.	.	32ee#
.	.	.	32ff# 32gg#
.	.	[8g#	32ee#
.	.	.	32ff# 32gg#
.	.	.	32ee#
.	.	.	32ff#JJJ 32gg#
=266	=266	=266	=266
*v	*v	*	*
.	.	16qqbLL
.	.	16qqdd#JJ
16r	4g#]	32ee#LLL
.	.	32ff# 32gg#
16FF#LL	.	32ee#
.	.	32ff# 32gg#
16BB	.	32ee#
.	.	32ff# 32gg#
16AJJ	.	32ee#
.	.	32ff#JJJ 32gg#
.	.	16qqbLL
.	.	16qqdd#JJ
8d#	4b	32ee#LLL
.	.	32ff# 32gg#
.	.	32ee#
.	.	32ff# 32gg#
8r	.	32ee#
.	.	32ff# 32gg#
.	.	32ee#
.	.	32ff#JJJ 32gg#
.	.	116qqbLL
.	.	16qqdd#JJ
4r	4g#	32ee#LLL
.	.	32ff# 32gg#
.	.	32ee#
.	.	32ff# 32gg#
.	.	32ee#
.	.	32ff# 32gg#
.	.	32ee#
.	.	32ff#JJJ 32gg#
*	*	*Xtremolo
=267	=267	=267
.	.	16qqcc/LL
.	.	16qqee-X/JJ
16e-XLL	4cc	[8ggnL
16A	.	.
16E-X	.	48ggLL]
.	.	48ffn
.	.	48dd
16FFnJJ	.	48cc
.	.	48f
.	.	48f#XJJJ
.	.	16qqc/LL
.	.	16qqe-X/JJ
4AA-X 4E-	4r	4g
.	.	16qqen/LL
.	.	16qqg/JJ
4GG 4En 4c	4r	4b
=268	=268	=268
*^	*	*
.	.	.	16qqan/LL
.	.	.	16qqdd-X/JJ
4GG 4E-X 4d-X	4rEE	4r	4ff
.	.	.	16qqa/LL
.	.	.	16qqdd-/JJ
12rc	4rEE	4.A	4ff
12fL	.	.	.
12d-J	.	.	.
.	.	.	16qqb-X/LL
.	.	.	16qqdd-/JJ
6E-	12E-L	.	4ff
.	12GGJ	.	.
.	.	[8B-X	.
12E-	12rEE	.	.
=269	=269	=269	=269
*	*	*	*tremolo
.	.	.	16qqbnLL
.	.	.	16qqdd#JJ
[2.D#	[2.FF#	24B-L]	32ee#LLL
.	.	.	32ff# 32gg#
.	.	12Bn	.
.	.	.	32ee#
.	.	.	32ff# 32gg#
.	.	24d#	32ee#
.	.	.	32ff# 32gg#
.	.	24e#	.
.	.	.	32ee#
.	.	24a#J	.
.	.	.	32ff#JJJ 32gg#
.	.	.	16qqbLL
.	.	.	16qqdd#JJ
.	.	[2an	32ee#LLL
.	.	.	32ff# 32gg#
.	.	.	32ee#
.	.	.	32ff# 32gg#
.	.	.	32ee#
.	.	.	32ff# 32gg#
.	.	.	32ee#
.	.	.	32ff#JJJ 32gg#
.	.	.	116qqbLL
.	.	.	16qqdd#JJ
.	.	.	32ee#LLL
.	.	.	32ff# 32gg#
.	.	.	32ee#
.	.	.	32ff# 32gg#
.	.	.	32ee#
.	.	.	32ff# 32gg#
.	.	.	32ee#
.	.	.	32ff#JJJ 32gg#
=270	=270	=270	=270
*v	*v	*	*
.	.	16qqbLL
.	.	16qqdd#JJ
2.r	2a]	32ee#LLL
.	.	32ff# 32gg#
.	.	32ee#
.	.	32ff# 32gg#
.	.	32ee#
.	.	32ff# 32gg#
.	.	32ee#
.	.	32ff# 32gg#
.	.	16qqbLL
.	.	16qqdd#JJ
.	.	32ee#
.	.	32ff# 32gg#
.	.	32ee#
.	.	32ff# 32gg#
.	.	32ee#
.	.	32ff# 32gg#
.	.	32ee#
.	.	32ff#JJJ 32gg#
.	.	116qqbLL
.	.	16qqdd#JJ
.	4g#	32ee#LLL
.	.	32ff# 32gg#
.	.	32ee#
.	.	32ff# 32gg#
.	.	32ee#
.	.	32ff# 32gg#
.	.	32ee#
.	.	32ff#JJJ 32gg#
*	*	*Xtremolo
*	*clefF4	*
=271||	=271||	=271||
*M3/8	*M3/8	*M3/8
*	*	*^
4.r	4.FF#X 4.BB	8raa	4.A 4.d#X
.	.	8bL	.
.	.	8g#XJ	.
=272	=272	=272	=272
4.r	4.EE-X 4.AA-X 4.G-X	8ccL	8B-X 8dn
.	.	8dd	4c-X 4g-X
.	.	8cc-XJ	.
=273	=273	=273	=273
*	*	*	*^
4.r	4.CCn 4.FF 4.E-X 4.An	8ee-XL	8gn	4.Bn\
.	.	8dd	4g-X	.
.	.	8bJ	.	.
*	*	*	*v	*v
=274	=274	=274	=274
4.r	8CC 8FF 8E-X 8A	8ee-XL	8B 8gn
.	4EE-X 4AA-X 4G-X	8b-X 8gg-X	4c
.	.	8b--J 8ee-	.
=275	=275	=275	=275
*	*^	*	*
4.r	8B-XL	24E-XLL	24r	4.r
.	.	24FF	24ggnLL	.
.	.	24CCJJ	[24dd-XJJ	.
.	8An	8rEE	16dd-LL]	.
.	.	.	[16ccJJ	.
.	8A-XJ	8rEE	12ccL]	.
.	.	.	24bnJk	.
=276	=276	=276	=276	=276
4.r	4A-X	4.BBBn 4.FF 4.E-X	4.ee-X	8g 8b
.	.	.	.	16qqB\LL
.	.	.	.	16qqe-X\JJ
.	.	.	.	4g
.	8A-	.	.	.
=277	=277	=277	=277	=277
4.r	[4.An	24E-XLL	8raa	12rc
.	.	24FF	.	.
.	.	24CCJJ	.	24b
.	.	8rEE	8ddL	[4g
.	.	8rEE	8bJ	.
=278	=278	=278	=278	=278
4.r	8A]	4.r	8ee-XL	12gL]
.	.	.	.	24g-XJk
.	4EE-X 4AA-X 4G-X	.	8b-X 8gg-X	4c 4e-X
.	.	.	8b--J 8ee-	.
=279	=279	=279	=279	=279
4.r	8B-XL	24E-XLL	24r	4.r
.	.	24FF	24ggnLL	.
.	.	24CCJJ	[24dd-XJJ	.
.	8An	8rEE	16dd-LL]	.
.	.	.	[16ccJJ	.
.	8A-XJ	8rEE	12ccL]	.
.	.	.	24bnJk	.
=280	=280	=280	=280	=280
4.r	4A-X	4.BBBn 4.FF 4.E-X	4.ee-X	8g 8b
.	.	.	.	16qqB\LL
.	.	.	.	16qqe-X\JJ
.	.	.	.	4g
.	8A-	.	.	.
=281	=281	=281	=281	=281
4.r	8B-XL	24E-XLL	16raa	16rc
.	.	24FF	.	.
.	.	.	16g	[16g
.	.	24CCJJ	.	.
.	8An	8rEE	16dd-XLL	4g]
.	.	.	16ccJJ	.
.	8A-XJ	8rEE	[8cc-X	.
=282	=282	=282	=282	=282
*	*	*^	*	*
4.r	8rc	16GLL	24G\LL	16cc-LL]	16rc
.	.	.	24AA-X\	.	.
.	.	[16G-XJJ	.	16b-X	[16b-
.	.	.	24EE-X\JJ	.	.
.	16cnKL	8G-]	8r	16ff-X	4b-]
.	8c-X	.	.	16ee-XJJ	.
.	.	8rEE	8r	[8ddn	.
.	16B-XJk	.	.	.	.
=283	=283	=283	=283	=283	=283
4.r	8rc	16A#XLL	24A#\LL	24ddKL]	24rc
.	.	.	24BBn\	[12cc#XJ	24ccc#XLL
.	.	[16AnJJ	.	.	.
.	.	.	24FF#X\JJ	.	[24ggnJJ
.	8d#XL	8A]	8r	4cc#]	16ggLL]
.	.	.	.	.	[16ff#XJJ
.	8dnJ	8rEE	8r	.	12ff#L]
.	.	.	.	.	24ee#XJk
=284	=284	=284	=284	=284	=284
*	*	*v	*v	*	*
4.r	4d	4.EE#X 4.BB 4.An	4.aa	8cc#X 8ee#X
.	.	.	.	16qqe#X\LL
.	.	.	.	16qqa\JJ
.	.	.	.	4cc#
.	8d	.	.	.
=285	=285	=285	=285	=285
4.r	[4.d#X	24ALL	8raa	12rc
.	.	24BB	.	.
.	.	24FF#XJJ	.	24ee#X
.	.	8rEE	8gg#XL	[4cc#X
.	.	8rEE	8ee#J	.
=286	=286	=286	=286	=286
*	*	*	*	*^
4.r	4d#]	4.r	8aaL	12cc#L]	4.e#X\
.	.	.	.	24ccnJk	.
.	.	.	8cccn	4a	.
.	8r	.	8aaJ	.	.
*	*v	*v	*	*	*
*	*	*	*v	*v
*	*	*v	*v
*	*clefG2	*
=287||	=287||	=287||
*M3/4	*M3/4	*M3/4
*^	*	*
*	*	*	*^
.	.	.	.	16qqa\LL
.	.	.	.	16qqdd-X\JJ
4GG 4E-X 4d-X	4rEE	4r	4ddd-X	4ff
12rc	4rEE	4.A	4raa	8rc
12fL	.	.	.	.
.	.	.	.	16qqa\LL
.	.	.	.	16qqdd-\JJ
.	.	.	.	[8ff
12d-J	.	.	.	.
6E-	12E-L	.	4raa	4ff]
.	12GGJ	.	.	.
.	.	[8B-X	.	.
12E-	12rEE	.	.	.
*	*	*	*v	*v
=288	=288	=288	=288
2.D#	16r	24B-L]	4r
.	.	12Bn	.
.	16FF#LL	.	.
.	16D#	24d#	.
.	.	24e#	.
.	16BJJ	.	.
.	.	24a#J	.
.	8e#	[2an	8r
.	.	.	16qqbLL
.	.	.	16qqdd#JJ
*	*	*	*tremolo
.	8r	.	32ee#LLL
.	.	.	32ff# 32gg#
.	.	.	32ee#
.	.	.	32ff#JJJ 32gg#
.	4r	.	32ee#LLL
.	.	.	32ff# 32gg#
.	.	.	32ee#
.	.	.	32ff# 32gg#
.	.	.	32ee#
.	.	.	32ff# 32gg#
.	.	.	32ee#
.	.	.	32ff#JJJ 32gg#
=289	=289	=289	=289
*v	*v	*	*
2.r	2a]	32ee#LLL
.	.	32ff# 32gg#
.	.	32ee#
.	.	32ff# 32gg#
.	.	32ee#
.	.	32ff# 32gg#
.	.	32ee#
.	.	32ff# 32gg#
.	.	32ee#
.	.	32ff# 32gg#
.	.	32ee#
.	.	32ff# 32gg#
.	.	32ee#
.	.	32ff# 32gg#
.	.	32ee#
.	.	32ff# 32gg#
.	4g#	32ee#
.	.	32ff# 32gg#
.	.	32ee#
.	.	32ff# 32gg#
.	.	32ee#
.	.	32ff# 32gg#
.	.	32ee#
.	.	32ff#JJJ 32gg#
*	*	*Xtremolo
*	*clefF4	*
=290||	=290||	=290||
*M3/8	*M3/8	*M3/8
*	*	*^
4.r	4.FF#X 4.BB	8raa	4.A 4.d#X
.	.	8bL	.
.	.	8g#XJ	.
=291	=291	=291	=291
4.r	4.EE-X 4.AA-X 4.G-X	8ccL	8B-X 8dn
.	.	8dd	4c-X 4g-X
.	.	8cc-XJ	.
=292||	=292||	=292||	=292||
*	*	*	*^
4.r	[4.CCn [4.FF [4.E-X [4.An	8ee-XL	8gn	[4.Bn\
.	.	8dd	[4g-X	.
.	.	[8cc-XJ	.	.
=293	=293	=293	=293	=293
4.r	8CC] 8FF] 8E-] 8A]	8cc-]	8g-]	8B/]
.	8r	8raa	8rc	8r
.	8r	8raa	8rc	8r
=294||	=294||	=294||	=294||	=294||
*	*	*	*v	*v
*	*^	*	*
*	*	*^	*	*
4.r	4.A	24FLL	8r	16ccnLL	[8gn
.	.	24G	.	.	.
.	.	.	.	16cc#XJJ	.
.	.	24EnJJ	.	.	.
.	.	4E-X	12E-/L	8.dd	24gLL]
.	.	.	.	.	24a
.	.	.	24FF/Jk	.	24g-XJJ
.	.	.	24CC/LL	.	16fLL
.	.	.	24FFF/JJ	.	.
.	.	.	.	16dd-X	16g-JJ
.	.	.	24r	.	.
=295	=295	=295	=295	=295	=296
4.r	4.A	24E-LL	8r	16dd-LL	[8gn
.	.	24F	.	.	.
.	.	.	.	16ddnJJ	.
.	.	24DJJ	.	.	.
.	.	4D-X	12D-/L	8.ee-	24gLL]
.	.	.	.	.	24a
.	.	.	24FF/Jk	.	24g-XJJ
.	.	.	24CC/LL	.	16fLL
.	.	.	24FFF/JJ	.	.
.	.	.	.	16ddn	16g-JJ
.	.	.	24r	.	.
*	*	*v	*v	*	*
*	*v	*v	*	*
=296	=296	=296	=296
4.r	8C 8A	16ddLL	24gnLL
.	.	.	24a
.	.	16ee-XJJ	.
.	.	.	24g-XJJ
.	.	16qqf/LL	8.qf
.	.	16qqa/	.
.	.	16qqcc/JJ	.
.	16FFFLL	32eenLLL	8rc
.	.	32ffJ	.
.	16CC	16eeJJ	.
.	.	16qqa/LL	.
.	.	16qqcc/JJ	.
.	16FF	32eeLLL	8rc
.	.	32ffJ	.
.	16CJJ	16eeJJ	.
*	*	*v	*v
=297	=297	=297
.	.	16qqa/LL
.	.	16qqcc/JJ
4.r	8r	32eeLLL
.	.	32ffJ
.	.	16eeJJ
.	.	16qqa/LL
.	.	16qqcc/JJ
.	16FFLL	32eeLLL
.	.	32ffJ
.	16C	16eeJJ
.	.	16qqa/LL
.	.	16qqcc/JJ
.	16F	32eeLLL
.	.	32ffJ
.	16cJJ	16eeJJ
=298	=298	=298
*	*^	*
*	*	*^	*
*	*	*	*	*^
4.r	4.c#X	24ALL	8r	16eeLL	[8b
.	.	24B	.	.	.
.	.	.	.	16ee#XJJ	.
.	.	24G#XJJ	.	.	.
.	.	4Gn	24G\LL	8.ff#X	24bLL]
.	.	.	24AA\	.	24cc#X
.	.	.	24EEn\	.	24b-XJJ
.	.	.	24AAA\	.	16aLL
.	.	.	24EEE\JJ	.	.
.	.	.	.	16ee#X	16b-JJ
.	.	.	24r	.	.
=299	=299	=299	=299	=299	=299
4.r	4.c#X	24GLL	8r	16ee#LL	[8bn
.	.	24A	.	.	.
.	.	.	.	16ff#JJ	.
.	.	24F#XJJ	.	.	.
.	.	4Fn	24F\LL	8.gg	24bLL]
.	.	.	24AA\	.	24cc#X
.	.	.	24EEn\	.	24b-XJJ
.	.	.	24AAA\	.	16aLL
.	.	.	24EEE\JJ	.	.
.	.	.	.	16ff#X	16b-JJ
.	.	.	24r	.	.
*	*	*v	*v	*	*
*	*v	*v	*	*
=300	=300	=300	=300
4.r	8r	16ff#LL	24bnLL
.	.	.	24cc#
.	.	16ggJJ	.
.	.	.	24b-XJJ
.	.	16qqa/LL	8.qa
.	.	16qqcc#/	.
.	.	16qqeen/JJ	.
.	16EEELL	32gg#LLL	8rc
.	.	32aaJ	.
.	16AAA	16gg#JJ	.
.	.	16qqcc#/LL	.
.	.	16qqee/JJ	.
.	16EE	32gg#LLL	8rc
.	.	32aaJ	.
.	16C#JJ	16gg#JJ	.
*	*	*v	*v
=301	=301	=301
.	.	16qqcc#/LL
.	.	16qqee/JJ
4.r	8r	32gg#LLL
.	.	32aaJ
.	.	16gg#JJ
.	.	16qqcc#/LL
.	.	16qqee/JJ
.	16EELL	32gg#LLL
.	.	32aaJ
.	16AA	16gg#JJ
.	.	16qqcc#/LL
.	.	16qqee/JJ
.	16E	32gg#LLL
.	.	32aaJ
.	16c#JJ	16gg#JJ
=302	=302	=302
*	*^	*
*	*	*^	*
*	*	*	*	*^
4.r	4.e	24cnLL	8r	16ggnLL	[8dd
.	.	24d	.	.	.
.	.	.	.	16gg#XJJ	.
.	.	24BJJ	.	.	.
.	.	4B-X	12r	8.aa	24ddLL]
.	.	.	.	.	24ee
.	.	.	24e\	.	24dd-XJJ
.	.	.	24B-\LL	.	16ccLL
.	.	.	24C\JJ	.	.
.	.	.	.	16aa-X	16dd-JJ
.	.	.	24r	.	.
=303	=303	=303	=303	=303	=303
4.r	4.e	24B-XLL	8r	16aa-XLL	[8ddn
.	.	24c	.	.	.
.	.	.	.	16aanJJ	.
.	.	24AJJ	.	.	.
.	.	4A-X	12r	8.bb-X	24ddLL]
.	.	.	.	.	24ee
.	.	.	24c\	.	24dd-XJJ
.	.	.	24E/LL	.	16ccLL
.	.	.	24GG/JJ	.	.
.	.	.	.	16aan	16dd-XJJ
.	.	.	24r	.	.
*	*	*v	*v	*	*
=304	=304	=304	=304	=304
4.r	4.G 4.e	8rEE	16aaLL	24ddnLL
.	.	.	.	24ee
.	.	.	16bb-XJJ	.
.	.	.	.	24dd-XJJ
.	.	12rEE	8.bbn	4cc 4ee
.	.	24G	.	.
.	.	24CLL	.	.
.	.	24EEJJ	.	.
.	.	.	16bb-X	.
.	.	24rEE	.	.
*	*v	*v	*	*
*	*	*v	*v
=305	=305	=305
*M9/16	*M9/16	*M9/16
*	*^	*
*	*	*^	*
4.r	32ELLL	8.rEE	4.r	16b-XLL 16ee 16aa-X 16bb-X
.	32GG	.	.	.
.	32CCJJJ	.	.	16bn 16ee 16aa- 16bbn
.	32rc	.	.	.
.	16rc	.	.	[16ccJJ [16ee [16aa- [16ccc
*	*clefG2	*	*	*
.	32bLLL	4e	.	16ccLL] 16ee] 16aa-] 16ccc]
.	32b-XJ	.	.	.
.	16bnJJ	.	.	16b 16ee 16aa- 16bb
.	16rc	.	.	16ccJJ 16ee 16aa- 16ccc
*	*clefF4	*	*	*
.	.	.	[8qGGG/ [8qCCn [8qGG	.
8.r	16rc	.	8GGG/] 8CC] 8GG] 8E	16cc#XLL 16ee 16aa- 16ccc#X
*	*clefG2	*	*	*
.	32bnLLL	16eLL	.	16ccn 16ee 16aa- 16cccn
.	32b-X	.	.	.
.	32bn	16eJJ	16r	16cc#XJJ 16ee 16aa- 16ccc#X
.	32b-XJJJ	.	.	.
*	*	*v	*v	*
*	*v	*v	*
*	*clefF4	*
=306||	=306||	=306||
*M3/16	*M3/16	*M3/16
8.r	8.r	8dd 8ee 8bb-X 8ddd
.	.	[16f#X
=307	=307	=307
8.r	32cLLL	8f#L]
.	32EJJJ	.
.	16r	.
.	16r	16gJk
=308||	=308||	=308||
*M2/8	*M2/8	*M2/8
4r	16E-X 16c	64a-XLLLL
.	.	64cc
.	.	64dd
.	.	64ggJ
.	16r	32gg-XJJJ
.	.	32r
*	*clefG2	*
.	40cLLL	40cccLLL 40ddd 40ggg-X
.	40d	40ccc 40ddd 40ggg-
.	40a-X	40ccc 40ddd 40ggg-
.	40cc	40ccc 40ddd 40ggg-
.	40ddJJJ	40cccJJJ 40ddd 40ggg-
=309	=309	=309
*M3/16	*M3/16	*M3/16
*	*	*^
8.r	16aa-X	8ggg-XL	8ccc 8ddd
.	16r	.	.
.	16r	16fffJk	16rc
=310	=310	=310	=310
*	*	*v	*v
*	*^	*
8.r	32bLLL	8F#X 8B 8f#X	8.r
.	32dd#XJJ	.	.
.	[8eeJ	.	.
.	.	16rc	.
=311	=311	=311	=311
*	*	*	*^
8.r	8.ee_	8.rc	32ggg#XLLL	16bb 16ddd#X
.	.	.	32eee#XJJJ	.
.	.	.	16raa	16rc
.	.	.	16raa	16rc
*	*	*	*v	*v
*	*	*^	*
=312	=312	=312	=312	=312
8.r	8.ee_	16.rc	8.r	16bb 16ddd#X 16aaa
.	.	.	.	16r
.	.	32b	.	.
.	.	16cc#X	.	16r
=313	=313	=313	=313	=313
8.r	8.ee]	8.f#X	16f#/LL	8.r
.	.	.	16B/JJ	.
.	.	.	16r	.
*	*	*v	*v	*
*	*v	*v	*
=314	=314	=314
8.r	32GnLLL	8r
.	32e-XJJJ	.
.	16r	.
.	16r	[16a
=315	=315	=315
8.r	32e-XLLL	8aL]
.	32GJJJ	.
.	16r	.
.	16r	16b-XJk
=316||	=316||	=316||
*M2/8	*M2/8	*M2/8
4r	16F#X 16d#X	64bnLLLL
.	.	64dd#X
.	.	64ee#X
.	.	64aa#XJ
.	16r	32aanJJJ
.	.	32r
.	40d#LLL	40ddd#XLLL 40eee#X 40aaa
.	40e#X	40ddd# 40eee# 40aaa
.	40b	40ddd# 40eee# 40aaa
.	40dd#X	40ddd# 40eee# 40aaa
.	40ee#XJJJ	40ddd#JJJ 40eee# 40aaa
=317	=317	=317
*M3/16	*M3/16	*M3/16
*	*	*^
8.r	8bb	8aaaL	8ddd#X 8eee#X
.	16r	16ggg#XJk	16rc
=318	=318	=318	=318
*	*	*v	*v
*	*^	*
8.r	32bLLL	8F#X 8B	8.r
.	32dd#XJJ	.	.
.	[8ee#XJ	.	.
.	.	16rc	.
=319	=319	=319	=319
*	*	*	*^
8.r	8.ee#_	8.rc	32bbbLLL	16ddd#X
.	.	.	32ggg#XJJJ	.
.	.	.	16raa	16rc
.	.	.	16raa	16rc
=320	=320	=320	=320	=320
*	*	*	*v	*v
8.r	8.ee#]	8.rc	8.eee-X 8.aaa 8.cccc
=321	=321	=321	=321
8.r	16e-X 16a	32FLLL	8.r
.	.	32F#XJJJ	.
.	16ra	16ra	.
.	16ra	16ra	.
*	*v	*v	*
=322	=322	=322
8.r	32GLLL	8r
.	32e-XJJJ	.
.	16r	.
.	16r	[16a
=323	=323	=323
8.r	32e-XLLL	8aL]
.	32GJJJ	.
.	16r	.
.	16r	16b-XJk
=324||	=324||	=324||
*M2/8	*M2/8	*M2/8
4r	16F#X 16d#X	64bnLLLL
.	.	64dd#X
.	.	64ee#X
.	.	64aa#XJ
.	16r	32aanJJJ
.	.	32r
.	40d#LLL	40ddd#XLLL 40eee#X 40aaa
.	40e#X	40ddd# 40eee# 40aaa
.	40b	40ddd# 40eee# 40aaa
.	40dd#X	40ddd# 40eee# 40aaa
.	40ee#XJJJ	40ddd#JJJ 40eee# 40aaa
=325	=325	=325
*M3/16	*M3/16	*M3/16
*	*	*^
8.r	8bb	8aaaL	8ddd#X 8eee#X
.	16r	16ggg#XJk	16rc
=326||	=326||	=326||	=326||
*M2/8	*M2/8	*M2/8	*M2/8
4r	16F#X 16B 16a	8raa	16dd#X
.	16r	.	16rc
.	8r	32bbLLL	16dd#
.	.	32gg#XJJJ	.
.	.	16raa	16rc
=327	=327	=327	=327
*	*^	*	*
4r	8b-XL	16E-X 16A-X 16g-X	8raa	16ddn 16ccc
.	.	16rc	.	16rc
.	8cc-XJ	8rc	32dddLLL	16gg-X
.	.	.	32ccc-XJJJ	.
.	.	.	16raa	16rc
*	*v	*v	*	*
*	*clefF4	*	*
=328	=328	=328	=328
4r	16Cn 16F 16e-X 16an	8raa	16bn 16ggn 16eee-X
.	16r	.	16rc
.	8r	32dddLLL	16gg-X
.	.	32bbJJJ	.
.	.	16raa	16rc
=329	=329	=329	=329
4r	16C 16F 16e-X 16a	8raa	16b 16gg 16eee-X
.	16r	.	16rc
.	8r	32ggg-LLL	16gg-X
.	.	32eee-JJJ	.
.	.	16raa	16rc
=330	=330	=330	=330
*	*^	*	*
4r	8rc	8CC 8FF	12rc	8r
.	.	.	24gggn	.
.	8E-X 8A 8e-X	8rEE	24ddd-XLL	8gg\
.	.	.	24cccJ	.
.	.	.	48r	.
.	.	.	[48bbJkk	.
=331	=331	=331	=331	=331
4r	4E-X 4A-X 4e-X	8rEE	8eee-X	8gg 8bb]
.	.	8BBB 8FF	32ggLLL	8b 8ee-X
.	.	.	32aa-XJ	.
.	.	.	16ggJJ	.
=332	=332	=332	=332	=332
4r	8E-X 8An 8e-X	8CC 8FF	8raa	16.rc
.	.	.	.	32b
.	8rc	8rEE	32ddLLL 32ddd	[8g
.	.	.	32bbJJJ	.
.	.	.	16raa	.
=333	=333	=333	=333	=333
4r	4r	4r	16ee-X 16eee-X	12gL]
.	.	.	16raa	.
.	.	.	.	24g-XJk
.	.	.	32gg-XLLL 32ggg-X	8e-X
.	.	.	32eee-JJJ	.
.	.	.	16raa	.
=334	=334	=334	=334	=334
4r	8rc	8CC 8FF	12rc	8r
.	.	.	24ggn	.
.	8E-X 8A 8e-X	8rEE	24dd-XLL	8gn\
.	.	.	24ccJ	.
.	.	.	48r	.
.	.	.	[48bJkk	.
=335	=335	=335	=335	=335
4r	4E-X 4A-X 4e-X	8rEE	8ee-X	8g 8b]
.	.	8BBB 8FF	32gLLL	8B 8e-X
.	.	.	32a-XJ	.
.	.	.	16gJJ	.
=336	=336	=336	=336	=336
4r	16EnLL	8CC 8FF	8raa	12rc
.	16E-X	.	.	.
.	.	.	.	[24g
.	16An	8rEE	24dd-XLL	8g]
.	.	.	24cc	.
.	16A-XJJ	.	.	.
.	.	.	24cc-XJJ	.
=337	=337	=337	=337	=337
4r	16GLL	8EE-X 8AA-X	8raa	12rc
.	16G-X	.	.	.
.	.	.	.	[24b-X
.	16cn	8rEE	24ff-XLL	8b-]
.	.	.	24ee-X	.
.	16c-XJJ	.	.	.
.	.	.	24ddnJJ	.
=338	=338	=338	=338	=338
4r	8A#X	8FF#X 8BBn	12raa	12rc
.	.	.	24ccc#X	[24cc#X
.	8An 8d#X 8an	8rEE	24ggnLL	8cc#]
.	.	.	24ff#XJ	.
.	.	.	48r	.
.	.	.	[48ee#XJkk	.
=339	=339	=339	=339	=339
4r	4A 4dn 4a	8rEE	8cc#X 8ee#] 8aa	8rc
.	.	8EE#X 8BB	32cc#LLL	8e#X 8a
.	.	.	32ddJ	.
.	.	.	16cc#JJ	.
=340	=340	=340	=340	=340
4r	8A 8d#X 8a	8FF#X 8BB	8raa	12rc
.	.	.	.	24ee#X
.	8rc	8rEE	32gg#XLLL	[8cc#X
.	.	.	32ee#JJJ	.
.	.	.	16raa	.
=341	=341	=341	=341	=341
*	*v	*v	*	*
4r	4r	16aa	12cc#L]
.	.	16raa	.
.	.	.	24ccnJk
.	.	32cccnLLL	8a
.	.	32aaJJJ	.
.	.	16raa	.
*	*	*v	*v
=342||	=342||	=342||
*M3/16	*M3/16	*M3/16
8.r	8.r	8ddd-X
.	.	[16a
*	*clefG2	*
=343	=343	=343
8.r	32e-XLLL	8aL]
.	32GJJJ	.
.	16r	.
.	16r	16b-XJk
=344||	=344||	=344||
*M2/8	*M2/8	*M2/8
4r	16F#X 16d#X	64bnLLLL
.	.	64dd#X
.	.	64ee#X
.	.	64aa#XJ
.	16r	32aanJJJ
.	.	32r
.	40d#LLL	40ddd#XLLL 40eee#X 40aaa
.	40e#X	40ddd# 40eee# 40aaa
.	40b	40ddd# 40eee# 40aaa
.	40dd#X	40ddd# 40eee# 40aaa
.	40ee#XJJJ	40ddd#JJJ 40eee# 40aaa
=345	=345	=345
*M3/16	*M3/16	*M3/16
*	*	*^
8.r	8bb	8aaaL	8ddd#X 8eee#X
.	16r	16ggg#XJk	16r
=346||	=346||	=346||	=346||
*M2/8	*M2/8	*M2/8	*M2/8
4r	16F#X 16B 16a	8raa	16dd#X
.	16r	.	16rc
.	8r	32bbLLL	16dd#
.	.	32gg#XJJJ	.
.	.	16raa	16rc
=347	=347	=347	=347
*	*^	*	*
4r	8b-XL	16E-X 16A-X 16g-X	8raa	16ddn 16ccc
.	.	16rc	.	16rc
.	8cc-XJ	8rc	32dddLLL	16gg-X
.	.	.	32ccc-XJJJ	.
.	.	.	16raa	16rc
*	*v	*v	*	*
*	*clefF4	*	*
=348	=348	=348	=348
4r	16Cn 16F 16e-X 16an	8ggn 8eee-X	32ggLLL
.	.	.	32bnJJJ
.	16r	.	16rc
.	8r	32dddLLL	16gg-X
.	.	32bbJJJ	.
.	.	16raa	16rc
=349	=349	=349	=349
4r	16C 16F 16e-X 16a	8ggn 8eee-X	32ggLLL
.	.	.	32bJJJ
.	16r	.	16rc
.	8r	32ggg-LLL	16gg-X
.	.	32eee-JJJ	.
.	.	16raa	16rc
=350	=350	=350	=350
*	*^	*	*
4r	8rc	8CC 8FF	12rc	8r
.	.	.	24gggn	.
.	8E-X 8A 8e-X	8rEE	24ddd-XLL	8gg\
.	.	.	24cccJ	.
.	.	.	48r	.
.	.	.	[48bbJkk	.
=351	=351	=351	=351	=351
4r	4E-X 4A-X 4e-X	8rEE	8eee-X	8gg 8bb]
.	.	8BBB 8FF	32ggLLL	8b 8ee-X
.	.	.	32aa-XJ	.
.	.	.	16ggJJ	.
=352	=352	=352	=352	=352
4r	8E-X 8An 8e-X	8CC 8FF	12r	8raa
.	.	.	24bb	.
.	8rc	8rEE	[8gg	32dLLL
.	.	.	.	32BJJJ
.	.	.	.	16raa
=353	=353	=353	=353	=353
4r	4r	4r	12ggL]	16e-X
.	.	.	.	16raa
.	.	.	24gg-XJk	.
.	.	.	8ee-X	32g-XLLL
.	.	.	.	32e-JJJ
.	.	.	.	16raa
=354	=354	=354	=354	=354
4r	16A	16CC 16FF 16E-X	12rc	8r
.	16rc	16rEE	.	.
.	.	.	24ggn	.
.	16ALL	8rEE	24dd-XLL	16gn\
.	.	.	24ccJ	.
.	16A-XJJ	.	.	16r
.	.	.	48r	.
.	.	.	[48bJkk	.
=355	=355	=355	=355	=355
4r	8rc	16EE-X 16AA-X 16G	8ee-X	8g 8b]
.	.	16rEE	.	.
.	16BKL	16EE- 16AA- 16G	8raa	8rc
.	32r	16rEE	.	.
.	32cJkk	.	.	.
=356	=356	=356	=356	=356
4r	8e-X	16CC 16FF 16E-X 16An	12rc	8r
.	.	16rEE	.	.
.	.	.	24gg	.
.	16ALL	8rEE	24dd-XLL	8g\
.	.	.	24ccJ	.
.	16A-XJJ	.	.	.
.	.	.	48r	.
.	.	.	[48bJkk	.
=357	=357	=357	=357	=357
4r	8rc	16EE-X 16AA-X 16G	8ee-X	8g 8b]
.	.	16rEE	.	.
.	16BKL	16EE- 16AA- 16G	8raa	8rc
.	32r	16rEE	.	.
.	32cJkk	.	.	.
=358	=358	=358	=358	=358
*	*	*	*v	*v
4r	8e-X	16CC 16FF 16E-X 16An	4r
.	.	16rEE	.
.	16BKL	16EE-X 16AA-X 16G	.
.	32r	16rEE	.
.	32cJkk	.	.
=359	=359	=359	=359
4r	8e-X	16CC 16FF 16E-X 16An	4r
.	.	16rEE	.
.	16BKL	16EE-X 16AA-X 16G	.
.	32r	16rEE	.
.	32cJkk	.	.
*	*v	*v	*
=360||	=360||	=360||
*M9/16	*M9/16	*M9/16
*	*^	*
*	*	*^	*
*	*	*	*	*^
4.r	8rc	8rEE	[4.CC\ [4.FF	16ffLL	4.g
.	.	.	.	16gg	.
.	16An	[16E-X	.	16ff-XJJ	.
.	8B-XL	8.E-_	.	[8.ee-X	.
.	[16AJk	.	.	.	.
8.r	16A]	16E-]	8.CC\] 8.FF]	16ee-LL]	[8.g
.	16rc	16rEE	.	16ffn	.
.	16A	[16E-	.	16ddJJ	.
=361	=361	=361	=361	=361	=361
4.r	8B-XL	8.E-_	[4.CC\ [4.FF	[8.dd-X	8.g]
.	[16AJk	.	.	.	.
.	16A]	16E-]	.	16dd-LL]	4.g
.	16rc	16rEE	.	16ee-X	.
.	16A	[16E-X	.	16ccJJ	.
8.r	8B-L	8.E-]	8.CC/] 8.FF]	8.cc-X	.
.	16AJk	.	.	.	.
=362	=362	=362	=362	=362	=362
*	*v	*v	*	*	*
4.r	8D-XL	[4.CC/ [4.FF	16cc-XLL	8AL
.	.	.	16dd-X	.
.	16DnJk	.	16b-XJJ	16B-XJk
.	8E-XL	.	[8.a	8.c-X
.	[16DJk	.	.	.
8.r	8DL]	8.CC/] 8.FF]	16aLL]	[8.c-
.	.	.	16cc-	.
.	16DJk	.	16a-XJJ	.
=363	=363	=363	=363	=363
4.r	8E-XL	[4.CCn/ [4.FF	[8.g	8.c-]
.	[16DJk	.	.	.
.	8DL]	.	16gLL]	[8.c-X
.	.	.	16an	.
.	16DJk	.	16g-XJJ	.
8.r	16E-LL	8.CC/] 8.FF]	[8.f	64%3c-LL]
.	.	.	.	64%3B-X
.	16D	.	.	.
.	.	.	.	64%3A
.	16D-XJJ	.	.	.
.	.	.	.	64%3A-XJJ
=364||	=364||	=364||	=364||	=364||
*	*v	*v	*	*
*	*	*v	*v
*M3/4	*M3/4	*M6/8
*	*^	*^
2.r	4Dn	[2.CC [2.FF	8fL]	2.An
.	.	.	8gn	.
.	4D-	.	8eJ	.
.	.	.	[4.e-	.
.	4C	.	.	.
=365	=365	=365	=365	=365
2.r	4BB	2.CC] 2.FF]	4.e-]	2.A-X
.	4C	.	.	.
.	.	.	4.en	.
.	4D-	.	.	.
=366	=366	=366	=366	=366
2.r	4Dn	[2.CC [2.FF	8fL	2.An
.	.	.	8g	.
.	4D-	.	8eJ	.
.	.	.	[4.e-	.
.	4C	.	.	.
=367	=367	=367	=367	=367
2.r	4BB	2.CC] 2.FF]	4.e-]	2.A-X
.	4C	.	.	.
.	.	.	4.en	.
.	4D-	.	.	.
=368	=368	=368	=368	=368
*M2/4	*M2/4	*M2/4	*M2/4	*M2/4
2r	4Dn	[2CC [2FF	12fL	2An
.	.	.	12g	.
.	.	.	12eJ	.
.	4D-	.	4e-	.
=369	=369	=369	=369	=369
2r	4C	2CC] 2FF]	12dnL	2A-
.	.	.	12en	.
.	.	.	12d-J	.
.	4D-	.	[4c	.
=370	=370	=370	=370	=370
2r	[2Dn	[2CC [2FF	12cL]	[2A-
.	.	.	12dn	.
.	.	.	12BJ	.
.	.	.	[4B-	.
=371	=371	=371	=371	=371
2r	2D]	2CC] 2FF]	2B-]	2A-]
*	*v	*v	*	*
*	*	*v	*v
=372||	=372||	=372||
*M9/16	*M9/16	*M9/16
*	*clefG2	*
[4.e-X	8r	4.r
.	16bn	.
.	[4.g	.
8.e-]	.	8.r
=373	=373	=373
[4.c	8gL]	4.r
.	16g-XJk	.
.	4.e-X	.
8.c_	.	8.r
=374	=374	=374
*	*	*^
4.c_	16gnLL	8.raa	8.rc
.	16a	.	.
.	16g-XJJ	.	.
.	[4.f	8raa	8.rc
.	.	16aaa	.
8.c_	.	[8.aa [8.eee-X [8.bbb	16.rc
.	.	.	32ff
.	.	.	16ggn
=375||	=375||	=375||	=375||
*M3/8	*M3/8	*M3/8	*M3/8
4.c_	4.f_	4.aa_ 4.eee-_ 4.bbb_	[4.cc
=376	=376	=376	=376
4.c_	4.f_	4.aa_ 4.eee-_ 4.bbb_	4.cc_
=377	=377	=377	=377
*^	*	*	*
4.c_	8FFF 8FF	4.f_	4.aa_ 4.eee-_ 4.bbb_	4.cc_
.	8rEE	.	.	.
.	8rEE	.	.	.
=378	=378	=378	=378	=378
4.c]	8CCC 8CC	4.f]	4.aa] 4.eee-] 4.bbb]	4.cc]
.	8rEE	.	.	.
.	8rEE	.	.	.
*v	*v	*	*	*
*	*	*v	*v
==	==	==
*-	*-	*-
!!!system-decoration: [(s1,s2,s3)]
!!!ENC: Bryan Jacob Bell
!!!END: November 2021 to April 2022
!!!PED: Gnter Philipp
!!!PTL: Ausgewhlte Klavierwerke (Edition Peters)
